; LightBurn 1.7.03
; GRBL device profile, absolute coords
; Bounds: X5 Y59 to X213 Y354
G00 G17 G40 G21 G54
G90
M4
; Cut @ 5000 mm/min, 75% power
M8
G0 X27.97Y84.152
; Layer C25 Pass 1 of 3
G1 Y87.978S750F5000
; Layer C25 Pass 2 of 3
G1 Y84.152
; Layer C25 Pass 3 of 3
G1 Y87.978
G0 X28.012Y87.956
; Layer C25 Pass 1 of 3
G1 X30.552
; Layer C25 Pass 2 of 3
G1 X28.012
; Layer C25 Pass 3 of 3
G1 X30.552
G0 X30.552Y87.956
; Layer C25 Pass 1 of 3
G1 X30.882Y87.979
G1 X31.185Y88.027
G1 X31.454Y88.095
G1 X31.682Y88.182
G1 X31.865Y88.285
G1 X31.996Y88.4
G1 X32.068Y88.525
G1 X32.075Y88.658
G1 X32.025Y88.775
G1 X31.925Y88.884
G1 X31.78Y88.983
G1 X31.595Y89.07
G1 X31.375Y89.143
G1 X31.124Y89.2
G1 X30.849Y89.24
G1 X30.552Y89.259
; Layer C25 Pass 2 of 3
G1 X30.849Y89.24
G1 X31.124Y89.2
G1 X31.375Y89.143
G1 X31.595Y89.07
G1 X31.78Y88.983
G1 X31.925Y88.884
G1 X32.025Y88.775
G1 X32.075Y88.658
G1 X32.068Y88.525
G1 X31.996Y88.4
G1 X31.865Y88.285
G1 X31.682Y88.182
G1 X31.454Y88.095
G1 X31.185Y88.027
G1 X30.882Y87.979
G1 X30.552Y87.956
; Layer C25 Pass 3 of 3
G1 X30.882Y87.979
G1 X31.185Y88.027
G1 X31.454Y88.095
G1 X31.682Y88.182
G1 X31.865Y88.285
G1 X31.996Y88.4
G1 X32.068Y88.525
G1 X32.075Y88.658
G1 X32.025Y88.775
G1 X31.925Y88.884
G1 X31.78Y88.983
G1 X31.595Y89.07
G1 X31.375Y89.143
G1 X31.124Y89.2
G1 X30.849Y89.24
G1 X30.552Y89.259
G0 X30.552Y89.259
; Layer C25 Pass 1 of 3
G1 X30.238Y89.27
G1 X29.948Y89.233
G1 X29.714Y89.157
G1 X29.568Y89.046
G1 X29.538Y88.984
G1 X29.541Y88.922
G1 X29.573Y88.863
G1 X29.633Y88.808
G1 X29.828Y88.716
G1 X30.107Y88.658
G1 X30.329Y88.645
G1 X30.552Y88.658
; Layer C25 Pass 2 of 3
G1 X30.329Y88.645
G1 X30.107Y88.658
G1 X29.828Y88.716
G1 X29.633Y88.808
G1 X29.573Y88.863
G1 X29.541Y88.922
G1 X29.538Y88.984
G1 X29.568Y89.046
G1 X29.714Y89.157
G1 X29.948Y89.233
G1 X30.238Y89.27
G1 X30.552Y89.259
; Layer C25 Pass 3 of 3
G1 X30.238Y89.27
G1 X29.948Y89.233
G1 X29.714Y89.157
G1 X29.568Y89.046
G1 X29.538Y88.984
G1 X29.541Y88.922
G1 X29.573Y88.863
G1 X29.633Y88.808
G1 X29.828Y88.716
G1 X30.107Y88.658
G1 X30.329Y88.645
G1 X30.552Y88.658
G0 X30.552Y88.658
; Layer C25 Pass 1 of 3
G1 X30.95Y88.721
G1 X31.297Y88.812
G1 X31.587Y88.926
G1 X31.815Y89.058
G1 X31.976Y89.206
G1 X32.063Y89.363
G1 X32.07Y89.528
G1 X31.992Y89.694
G1 X31.9Y89.794
G1 X31.779Y89.887
G1 X31.63Y89.973
G1 X31.456Y90.051
G1 X31.042Y90.178
G1 X30.552Y90.262
; Layer C25 Pass 2 of 3
G1 X31.042Y90.178
G1 X31.456Y90.051
G1 X31.63Y89.973
G1 X31.779Y89.887
G1 X31.9Y89.794
G1 X31.992Y89.694
G1 X32.07Y89.528
G1 X32.063Y89.363
G1 X31.976Y89.206
G1 X31.815Y89.058
G1 X31.587Y88.926
G1 X31.297Y88.812
G1 X30.95Y88.721
G1 X30.552Y88.658
; Layer C25 Pass 3 of 3
G1 X30.95Y88.721
G1 X31.297Y88.812
G1 X31.587Y88.926
G1 X31.815Y89.058
G1 X31.976Y89.206
G1 X32.063Y89.363
G1 X32.07Y89.528
G1 X31.992Y89.694
G1 X31.9Y89.794
G1 X31.779Y89.887
G1 X31.63Y89.973
G1 X31.456Y90.051
G1 X31.042Y90.178
G1 X30.552Y90.262
G0 X30.552Y90.262
; Layer C25 Pass 1 of 3
G1 X30.238Y90.273
G1 X29.948Y90.236
G1 X29.714Y90.159
G1 X29.568Y90.049
G1 X29.538Y89.987
G1 X29.541Y89.925
G1 X29.573Y89.866
G1 X29.633Y89.811
G1 X29.828Y89.718
G1 X30.107Y89.661
G1 X30.329Y89.648
G1 X30.552Y89.661
; Layer C25 Pass 2 of 3
G1 X30.329Y89.648
G1 X30.107Y89.661
G1 X29.828Y89.718
G1 X29.633Y89.811
G1 X29.573Y89.866
G1 X29.541Y89.925
G1 X29.538Y89.987
G1 X29.568Y90.049
G1 X29.714Y90.159
G1 X29.948Y90.236
G1 X30.238Y90.273
G1 X30.552Y90.262
; Layer C25 Pass 3 of 3
G1 X30.238Y90.273
G1 X29.948Y90.236
G1 X29.714Y90.159
G1 X29.568Y90.049
G1 X29.538Y89.987
G1 X29.541Y89.925
G1 X29.573Y89.866
G1 X29.633Y89.811
G1 X29.828Y89.718
G1 X30.107Y89.661
G1 X30.329Y89.648
G1 X30.552Y89.661
G0 X30.552Y89.661
; Layer C25 Pass 1 of 3
G1 X30.95Y89.722
G1 X31.298Y89.811
G1 X31.591Y89.924
G1 X31.822Y90.055
G1 X31.985Y90.201
G1 X32.075Y90.358
G1 X32.087Y90.522
G1 X32.013Y90.688
G1 X31.922Y90.79
G1 X31.8Y90.885
G1 X31.65Y90.973
G1 X31.474Y91.052
G1 X31.051Y91.181
G1 X30.552Y91.265
; Layer C25 Pass 2 of 3
G1 X31.051Y91.181
G1 X31.474Y91.052
G1 X31.65Y90.973
G1 X31.8Y90.885
G1 X31.922Y90.79
G1 X32.013Y90.688
G1 X32.087Y90.522
G1 X32.075Y90.358
G1 X31.985Y90.201
G1 X31.822Y90.055
G1 X31.591Y89.924
G1 X31.298Y89.811
G1 X30.95Y89.722
G1 X30.552Y89.661
; Layer C25 Pass 3 of 3
G1 X30.95Y89.722
G1 X31.298Y89.811
G1 X31.591Y89.924
G1 X31.822Y90.055
G1 X31.985Y90.201
G1 X32.075Y90.358
G1 X32.087Y90.522
G1 X32.013Y90.688
G1 X31.922Y90.79
G1 X31.8Y90.885
G1 X31.65Y90.973
G1 X31.474Y91.052
G1 X31.051Y91.181
G1 X30.552Y91.265
G0 X30.552Y91.265
; Layer C25 Pass 1 of 3
G1 X30.238Y91.276
G1 X29.948Y91.239
G1 X29.714Y91.162
G1 X29.568Y91.052
G1 X29.538Y90.99
G1 X29.541Y90.928
G1 X29.573Y90.869
G1 X29.633Y90.814
G1 X29.828Y90.721
G1 X30.107Y90.663
G1 X30.329Y90.651
G1 X30.552Y90.663
; Layer C25 Pass 2 of 3
G1 X30.329Y90.651
G1 X30.107Y90.663
G1 X29.828Y90.721
G1 X29.633Y90.814
G1 X29.573Y90.869
G1 X29.541Y90.928
G1 X29.538Y90.99
G1 X29.568Y91.052
G1 X29.714Y91.162
G1 X29.948Y91.239
G1 X30.238Y91.276
G1 X30.552Y91.265
; Layer C25 Pass 3 of 3
G1 X30.238Y91.276
G1 X29.948Y91.239
G1 X29.714Y91.162
G1 X29.568Y91.052
G1 X29.538Y90.99
G1 X29.541Y90.928
G1 X29.573Y90.869
G1 X29.633Y90.814
G1 X29.828Y90.721
G1 X30.107Y90.663
G1 X30.329Y90.651
G1 X30.552Y90.663
G0 X30.554Y90.663
; Layer C25 Pass 1 of 3
G1 X30.884Y90.687
G1 X31.186Y90.734
G1 X31.455Y90.803
G1 X31.684Y90.89
G1 X31.867Y90.992
G1 X31.997Y91.108
G1 X32.069Y91.233
G1 X32.077Y91.365
G1 X32.027Y91.483
G1 X31.927Y91.592
G1 X31.782Y91.69
G1 X31.597Y91.777
G1 X31.376Y91.851
G1 X31.126Y91.908
G1 X30.85Y91.947
G1 X30.554Y91.967
; Layer C25 Pass 2 of 3
G1 X30.85Y91.947
G1 X31.126Y91.908
G1 X31.376Y91.851
G1 X31.597Y91.777
G1 X31.782Y91.69
G1 X31.927Y91.592
G1 X32.027Y91.483
G1 X32.077Y91.365
G1 X32.069Y91.233
G1 X31.997Y91.108
G1 X31.867Y90.992
G1 X31.684Y90.89
G1 X31.455Y90.803
G1 X31.186Y90.734
G1 X30.884Y90.687
G1 X30.554Y90.663
; Layer C25 Pass 3 of 3
G1 X30.884Y90.687
G1 X31.186Y90.734
G1 X31.455Y90.803
G1 X31.684Y90.89
G1 X31.867Y90.992
G1 X31.997Y91.108
G1 X32.069Y91.233
G1 X32.077Y91.365
G1 X32.027Y91.483
G1 X31.927Y91.592
G1 X31.782Y91.69
G1 X31.597Y91.777
G1 X31.376Y91.851
G1 X31.126Y91.908
G1 X30.85Y91.947
G1 X30.554Y91.967
G0 X30.552Y91.967
; Layer C25 Pass 1 of 3
G1 X28.012
; Layer C25 Pass 2 of 3
G1 X30.552
; Layer C25 Pass 3 of 3
G1 X28.012
G0 X27.989Y91.96
; Layer C25 Pass 1 of 3
G1 Y95.82
; Layer C25 Pass 2 of 3
G1 Y91.96
; Layer C25 Pass 3 of 3
G1 Y95.82
G0 X25.992Y95.477
; Layer C25 Pass 1 of 3
G1 Y94.019
; Layer C25 Pass 2 of 3
G1 Y95.477
; Layer C25 Pass 3 of 3
G1 Y94.019
G0 X25.947Y93.983
; Layer C25 Pass 1 of 3
G1 X34.005
; Layer C25 Pass 2 of 3
G1 X25.947
; Layer C25 Pass 3 of 3
G1 X34.005
G0 X34Y93.979
; Layer C25 Pass 1 of 3
G1 Y91.67
; Layer C25 Pass 2 of 3
G1 Y93.979
; Layer C25 Pass 3 of 3
G1 Y91.67
G0 X34Y91.67
; Layer C25 Pass 1 of 3
G1 X34.762Y92.198
; Layer C25 Pass 2 of 3
G1 X34Y91.67
; Layer C25 Pass 3 of 3
G1 X34.762Y92.198
G0 X34.767Y92.169
; Layer C25 Pass 1 of 3
G1 X34.005Y91.641
; Layer C25 Pass 2 of 3
G1 X34.767Y92.169
; Layer C25 Pass 3 of 3
G1 X34.005Y91.641
G0 X34.005Y91.641
; Layer C25 Pass 1 of 3
G1 X33.243Y92.169
; Layer C25 Pass 2 of 3
G1 X34.005Y91.641
; Layer C25 Pass 3 of 3
G1 X33.243Y92.169
G0 X33.238Y92.198
; Layer C25 Pass 1 of 3
G1 X34Y91.67
; Layer C25 Pass 2 of 3
G1 X33.238Y92.198
; Layer C25 Pass 3 of 3
G1 X34Y91.67
G0 X36.943Y91.949
; Layer C25 Pass 1 of 3
G1 X38.145
G1 X38.762Y91.956
G1 X38.99Y91.96
G1 X39.022Y91.963
G1 Y95.448
; Layer C25 Pass 2 of 3
G1 Y91.963
G1 X38.99Y91.96
G1 X38.762Y91.956
G1 X38.145Y91.951
G1 X36.943
; Layer C25 Pass 3 of 3
G1 X38.145
G1 X38.762Y91.956
G1 X38.99Y91.96
G1 X39.022Y91.963
G1 Y95.448
G0 X37Y92.017
; Layer C25 Pass 1 of 3
G1 Y87.976
; Layer C25 Pass 2 of 3
G1 Y92.017
; Layer C25 Pass 3 of 3
G1 Y87.976
G0 X36.961Y87.936
; Layer C25 Pass 1 of 3
G1 X38.132
G1 X38.733Y87.929
G1 X38.955Y87.924
G1 X38.987
G1 Y84.436
; Layer C25 Pass 2 of 3
G1 Y87.922
G1 X38.955
G1 X38.733Y87.929
G1 X38.132Y87.934
G1 X36.961
; Layer C25 Pass 3 of 3
G1 X38.132
G1 X38.733Y87.929
G1 X38.955Y87.924
G1 X38.987
G1 Y84.436
G0 X33.992Y85.98
; Layer C25 Pass 1 of 3
G1 Y87.04
; Layer C25 Pass 2 of 3
G1 Y85.98
; Layer C25 Pass 3 of 3
G1 Y87.04
G0 X33.992Y86.613
; Layer C25 Pass 1 of 3
G1 Y88.374
; Layer C25 Pass 2 of 3
G1 Y86.613
; Layer C25 Pass 3 of 3
G1 Y88.374
G0 X33.992Y88.374
; Layer C25 Pass 1 of 3
G1 X34.754Y87.846
; Layer C25 Pass 2 of 3
G1 X33.992Y88.374
; Layer C25 Pass 3 of 3
G1 X34.754Y87.846
G0 X34.756Y87.853
; Layer C25 Pass 1 of 3
G1 X33.994Y88.382
; Layer C25 Pass 2 of 3
G1 X34.756Y87.853
; Layer C25 Pass 3 of 3
G1 X33.994Y88.382
G0 X33.99Y88.383
; Layer C25 Pass 1 of 3
G1 X33.228Y87.854
; Layer C25 Pass 2 of 3
G1 X33.99Y88.383
; Layer C25 Pass 3 of 3
G1 X33.228Y87.854
G0 X33.23Y87.846
; Layer C25 Pass 1 of 3
G1 X33.992Y88.374
; Layer C25 Pass 2 of 3
G1 X33.23Y87.846
; Layer C25 Pass 3 of 3
G1 X33.992Y88.374
G0 X34.626Y88.738
; Layer C25 Pass 1 of 3
G1 X36.404Y89.972
; Layer C25 Pass 2 of 3
G1 X34.626Y88.738
; Layer C25 Pass 3 of 3
G1 X36.404Y89.972
G0 X36.404Y89.972
; Layer C25 Pass 1 of 3
G1 X37.014
; Layer C25 Pass 2 of 3
G1 X36.404
; Layer C25 Pass 3 of 3
G1 X37.014
G0 X36.391Y89.996
; Layer C25 Pass 1 of 3
G1 X34.613Y88.763
; Layer C25 Pass 2 of 3
G1 X36.391Y89.996
; Layer C25 Pass 3 of 3
G1 X34.613Y88.763
G0 X33.989Y85.981
; Layer C25 Pass 1 of 3
G1 X25.985
; Layer C25 Pass 2 of 3
G1 X33.989
; Layer C25 Pass 3 of 3
G1 X25.985
G0 X25.992Y86.003
; Layer C25 Pass 1 of 3
G1 Y84.437
; Layer C25 Pass 2 of 3
G1 Y86.003
; Layer C25 Pass 3 of 3
G1 Y84.437
G0 X50.992Y84.437
; Layer C25 Pass 1 of 3
G1 Y86.003
; Layer C25 Pass 2 of 3
G1 Y84.437
; Layer C25 Pass 3 of 3
G1 Y86.003
G0 X50.985Y85.981
; Layer C25 Pass 1 of 3
G1 X58.989
; Layer C25 Pass 2 of 3
G1 X50.985
; Layer C25 Pass 3 of 3
G1 X58.989
G0 X58.992Y85.98
; Layer C25 Pass 1 of 3
G1 Y87.04
; Layer C25 Pass 2 of 3
G1 Y85.98
; Layer C25 Pass 3 of 3
G1 Y87.04
G0 X58.992Y86.613
; Layer C25 Pass 1 of 3
G1 Y88.374
; Layer C25 Pass 2 of 3
G1 Y86.613
; Layer C25 Pass 3 of 3
G1 Y88.374
G0 X58.992Y88.374
; Layer C25 Pass 1 of 3
G1 X59.754Y87.846
; Layer C25 Pass 2 of 3
G1 X58.992Y88.374
; Layer C25 Pass 3 of 3
G1 X59.754Y87.846
G0 X59.756Y87.853
; Layer C25 Pass 1 of 3
G1 X58.994Y88.382
; Layer C25 Pass 2 of 3
G1 X59.756Y87.853
; Layer C25 Pass 3 of 3
G1 X58.994Y88.382
G0 X58.99Y88.383
; Layer C25 Pass 1 of 3
G1 X58.228Y87.854
; Layer C25 Pass 2 of 3
G1 X58.99Y88.383
; Layer C25 Pass 3 of 3
G1 X58.228Y87.854
G0 X58.23Y87.846
; Layer C25 Pass 1 of 3
G1 X58.992Y88.374
; Layer C25 Pass 2 of 3
G1 X58.23Y87.846
; Layer C25 Pass 3 of 3
G1 X58.992Y88.374
G0 X59.626Y88.738
; Layer C25 Pass 1 of 3
G1 X61.404Y89.972
; Layer C25 Pass 2 of 3
G1 X59.626Y88.738
; Layer C25 Pass 3 of 3
G1 X61.404Y89.972
G0 X61.404Y89.972
; Layer C25 Pass 1 of 3
G1 X62.014
; Layer C25 Pass 2 of 3
G1 X61.404
; Layer C25 Pass 3 of 3
G1 X62.014
G0 X61.391Y89.996
; Layer C25 Pass 1 of 3
G1 X59.613Y88.763
; Layer C25 Pass 2 of 3
G1 X61.391Y89.996
; Layer C25 Pass 3 of 3
G1 X59.613Y88.763
G0 X61.961Y87.936
; Layer C25 Pass 1 of 3
G1 X63.132
G1 X63.733Y87.929
G1 X63.955Y87.924
G1 X63.987
G1 Y84.436
; Layer C25 Pass 2 of 3
G1 Y87.922
G1 X63.955
G1 X63.733Y87.929
G1 X63.132Y87.934
G1 X61.961
; Layer C25 Pass 3 of 3
G1 X63.132
G1 X63.733Y87.929
G1 X63.955Y87.924
G1 X63.987
G1 Y84.436
G0 X62Y87.976
; Layer C25 Pass 1 of 3
G1 Y92.017
; Layer C25 Pass 2 of 3
G1 Y87.976
; Layer C25 Pass 3 of 3
G1 Y92.017
G0 X61.943Y91.949
; Layer C25 Pass 1 of 3
G1 X63.145
G1 X63.762Y91.956
G1 X63.99Y91.96
G1 X64.022Y91.963
G1 Y95.448
; Layer C25 Pass 2 of 3
G1 Y91.963
G1 X63.99Y91.96
G1 X63.762Y91.956
G1 X63.145Y91.951
G1 X61.943
; Layer C25 Pass 3 of 3
G1 X63.145
G1 X63.762Y91.956
G1 X63.99Y91.96
G1 X64.022Y91.963
G1 Y95.448
G0 X59.005Y93.983
; Layer C25 Pass 1 of 3
G1 X50.947
; Layer C25 Pass 2 of 3
G1 X59.005
; Layer C25 Pass 3 of 3
G1 X50.947
G0 X50.992Y94.019
; Layer C25 Pass 1 of 3
G1 Y95.477
; Layer C25 Pass 2 of 3
G1 Y94.019
; Layer C25 Pass 3 of 3
G1 Y95.477
G0 X52.989Y95.82
; Layer C25 Pass 1 of 3
G1 Y91.96
; Layer C25 Pass 2 of 3
G1 Y95.82
; Layer C25 Pass 3 of 3
G1 Y91.96
G0 X53.012Y91.967
; Layer C25 Pass 1 of 3
G1 X55.552
; Layer C25 Pass 2 of 3
G1 X53.012
; Layer C25 Pass 3 of 3
G1 X55.552
G0 X55.554Y91.967
; Layer C25 Pass 1 of 3
G1 X55.85Y91.947
G1 X56.126Y91.908
G1 X56.376Y91.851
G1 X56.597Y91.777
G1 X56.782Y91.69
G1 X56.927Y91.592
G1 X57.027Y91.483
G1 X57.077Y91.365
G1 X57.069Y91.233
G1 X56.997Y91.108
G1 X56.867Y90.992
G1 X56.684Y90.89
G1 X56.455Y90.803
G1 X56.186Y90.734
G1 X55.884Y90.687
G1 X55.554Y90.663
; Layer C25 Pass 2 of 3
G1 X55.884Y90.687
G1 X56.186Y90.734
G1 X56.455Y90.803
G1 X56.684Y90.89
G1 X56.867Y90.992
G1 X56.997Y91.108
G1 X57.069Y91.233
G1 X57.077Y91.365
G1 X57.027Y91.483
G1 X56.927Y91.592
G1 X56.782Y91.69
G1 X56.597Y91.777
G1 X56.376Y91.851
G1 X56.126Y91.908
G1 X55.85Y91.947
G1 X55.554Y91.967
; Layer C25 Pass 3 of 3
G1 X55.85Y91.947
G1 X56.126Y91.908
G1 X56.376Y91.851
G1 X56.597Y91.777
G1 X56.782Y91.69
G1 X56.927Y91.592
G1 X57.027Y91.483
G1 X57.077Y91.365
G1 X57.069Y91.233
G1 X56.997Y91.108
G1 X56.867Y90.992
G1 X56.684Y90.89
G1 X56.455Y90.803
G1 X56.186Y90.734
G1 X55.884Y90.687
G1 X55.554Y90.663
G0 X55.552Y90.663
; Layer C25 Pass 1 of 3
G1 X55.329Y90.651
G1 X55.107Y90.663
G1 X54.828Y90.721
G1 X54.633Y90.814
G1 X54.573Y90.869
G1 X54.541Y90.928
G1 X54.538Y90.99
G1 X54.568Y91.052
G1 X54.714Y91.162
G1 X54.948Y91.239
G1 X55.238Y91.276
G1 X55.552Y91.265
; Layer C25 Pass 2 of 3
G1 X55.238Y91.276
G1 X54.948Y91.239
G1 X54.714Y91.162
G1 X54.568Y91.052
G1 X54.538Y90.99
G1 X54.541Y90.928
G1 X54.573Y90.869
G1 X54.633Y90.814
G1 X54.828Y90.721
G1 X55.107Y90.663
G1 X55.329Y90.651
G1 X55.552Y90.663
; Layer C25 Pass 3 of 3
G1 X55.329Y90.651
G1 X55.107Y90.663
G1 X54.828Y90.721
G1 X54.633Y90.814
G1 X54.573Y90.869
G1 X54.541Y90.928
G1 X54.538Y90.99
G1 X54.568Y91.052
G1 X54.714Y91.162
G1 X54.948Y91.239
G1 X55.238Y91.276
G1 X55.552Y91.265
G0 X55.552Y91.265
; Layer C25 Pass 1 of 3
G1 X56.051Y91.181
G1 X56.474Y91.052
G1 X56.65Y90.973
G1 X56.8Y90.885
G1 X56.922Y90.79
G1 X57.013Y90.688
G1 X57.087Y90.522
G1 X57.075Y90.358
G1 X56.985Y90.201
G1 X56.822Y90.055
G1 X56.591Y89.924
G1 X56.298Y89.811
G1 X55.95Y89.722
G1 X55.552Y89.661
; Layer C25 Pass 2 of 3
G1 X55.95Y89.722
G1 X56.298Y89.811
G1 X56.591Y89.924
G1 X56.822Y90.055
G1 X56.985Y90.201
G1 X57.075Y90.358
G1 X57.087Y90.522
G1 X57.013Y90.688
G1 X56.922Y90.79
G1 X56.8Y90.885
G1 X56.65Y90.973
G1 X56.474Y91.052
G1 X56.051Y91.181
G1 X55.552Y91.265
; Layer C25 Pass 3 of 3
G1 X56.051Y91.181
G1 X56.474Y91.052
G1 X56.65Y90.973
G1 X56.8Y90.885
G1 X56.922Y90.79
G1 X57.013Y90.688
G1 X57.087Y90.522
G1 X57.075Y90.358
G1 X56.985Y90.201
G1 X56.822Y90.055
G1 X56.591Y89.924
G1 X56.298Y89.811
G1 X55.95Y89.722
G1 X55.552Y89.661
G0 X55.552Y89.661
; Layer C25 Pass 1 of 3
G1 X55.329Y89.648
G1 X55.107Y89.661
G1 X54.828Y89.718
G1 X54.633Y89.811
G1 X54.573Y89.866
G1 X54.541Y89.925
G1 X54.538Y89.987
G1 X54.568Y90.049
G1 X54.714Y90.159
G1 X54.948Y90.236
G1 X55.238Y90.273
G1 X55.552Y90.262
; Layer C25 Pass 2 of 3
G1 X55.238Y90.273
G1 X54.948Y90.236
G1 X54.714Y90.159
G1 X54.568Y90.049
G1 X54.538Y89.987
G1 X54.541Y89.925
G1 X54.573Y89.866
G1 X54.633Y89.811
G1 X54.828Y89.718
G1 X55.107Y89.661
G1 X55.329Y89.648
G1 X55.552Y89.661
; Layer C25 Pass 3 of 3
G1 X55.329Y89.648
G1 X55.107Y89.661
G1 X54.828Y89.718
G1 X54.633Y89.811
G1 X54.573Y89.866
G1 X54.541Y89.925
G1 X54.538Y89.987
G1 X54.568Y90.049
G1 X54.714Y90.159
G1 X54.948Y90.236
G1 X55.238Y90.273
G1 X55.552Y90.262
G0 X55.552Y90.262
; Layer C25 Pass 1 of 3
G1 X56.042Y90.178
G1 X56.456Y90.051
G1 X56.63Y89.973
G1 X56.779Y89.887
G1 X56.9Y89.794
G1 X56.992Y89.694
G1 X57.07Y89.528
G1 X57.063Y89.363
G1 X56.976Y89.206
G1 X56.815Y89.058
G1 X56.587Y88.926
G1 X56.297Y88.812
G1 X55.95Y88.721
G1 X55.552Y88.658
; Layer C25 Pass 2 of 3
G1 X55.95Y88.721
G1 X56.297Y88.812
G1 X56.587Y88.926
G1 X56.815Y89.058
G1 X56.976Y89.206
G1 X57.063Y89.363
G1 X57.07Y89.528
G1 X56.992Y89.694
G1 X56.9Y89.794
G1 X56.779Y89.887
G1 X56.63Y89.973
G1 X56.456Y90.051
G1 X56.042Y90.178
G1 X55.552Y90.262
; Layer C25 Pass 3 of 3
G1 X56.042Y90.178
G1 X56.456Y90.051
G1 X56.63Y89.973
G1 X56.779Y89.887
G1 X56.9Y89.794
G1 X56.992Y89.694
G1 X57.07Y89.528
G1 X57.063Y89.363
G1 X56.976Y89.206
G1 X56.815Y89.058
G1 X56.587Y88.926
G1 X56.297Y88.812
G1 X55.95Y88.721
G1 X55.552Y88.658
G0 X55.552Y88.658
; Layer C25 Pass 1 of 3
G1 X55.329Y88.645
G1 X55.107Y88.658
G1 X54.828Y88.716
G1 X54.633Y88.808
G1 X54.573Y88.863
G1 X54.541Y88.922
G1 X54.538Y88.984
G1 X54.568Y89.046
G1 X54.714Y89.157
G1 X54.948Y89.233
G1 X55.238Y89.27
G1 X55.552Y89.259
; Layer C25 Pass 2 of 3
G1 X55.238Y89.27
G1 X54.948Y89.233
G1 X54.714Y89.157
G1 X54.568Y89.046
G1 X54.538Y88.984
G1 X54.541Y88.922
G1 X54.573Y88.863
G1 X54.633Y88.808
G1 X54.828Y88.716
G1 X55.107Y88.658
G1 X55.329Y88.645
G1 X55.552Y88.658
; Layer C25 Pass 3 of 3
G1 X55.329Y88.645
G1 X55.107Y88.658
G1 X54.828Y88.716
G1 X54.633Y88.808
G1 X54.573Y88.863
G1 X54.541Y88.922
G1 X54.538Y88.984
G1 X54.568Y89.046
G1 X54.714Y89.157
G1 X54.948Y89.233
G1 X55.238Y89.27
G1 X55.552Y89.259
G0 X55.552Y89.259
; Layer C25 Pass 1 of 3
G1 X55.849Y89.24
G1 X56.124Y89.2
G1 X56.375Y89.143
G1 X56.595Y89.07
G1 X56.78Y88.983
G1 X56.925Y88.884
G1 X57.025Y88.775
G1 X57.075Y88.658
G1 X57.068Y88.525
G1 X56.996Y88.4
G1 X56.865Y88.285
G1 X56.682Y88.182
G1 X56.454Y88.095
G1 X56.185Y88.027
G1 X55.882Y87.979
G1 X55.552Y87.956
; Layer C25 Pass 2 of 3
G1 X55.882Y87.979
G1 X56.185Y88.027
G1 X56.454Y88.095
G1 X56.682Y88.182
G1 X56.865Y88.285
G1 X56.996Y88.4
G1 X57.068Y88.525
G1 X57.075Y88.658
G1 X57.025Y88.775
G1 X56.925Y88.884
G1 X56.78Y88.983
G1 X56.595Y89.07
G1 X56.375Y89.143
G1 X56.124Y89.2
G1 X55.849Y89.24
G1 X55.552Y89.259
; Layer C25 Pass 3 of 3
G1 X55.849Y89.24
G1 X56.124Y89.2
G1 X56.375Y89.143
G1 X56.595Y89.07
G1 X56.78Y88.983
G1 X56.925Y88.884
G1 X57.025Y88.775
G1 X57.075Y88.658
G1 X57.068Y88.525
G1 X56.996Y88.4
G1 X56.865Y88.285
G1 X56.682Y88.182
G1 X56.454Y88.095
G1 X56.185Y88.027
G1 X55.882Y87.979
G1 X55.552Y87.956
G0 X55.552Y87.956
; Layer C25 Pass 1 of 3
G1 X53.012
; Layer C25 Pass 2 of 3
G1 X55.552
; Layer C25 Pass 3 of 3
G1 X53.012
G0 X52.97Y87.978
; Layer C25 Pass 1 of 3
G1 Y84.152
; Layer C25 Pass 2 of 3
G1 Y87.978
; Layer C25 Pass 3 of 3
G1 Y84.152
G0 X59.005Y91.641
; Layer C25 Pass 1 of 3
G1 X58.243Y92.169
; Layer C25 Pass 2 of 3
G1 X59.005Y91.641
; Layer C25 Pass 3 of 3
G1 X58.243Y92.169
G0 X58.238Y92.198
; Layer C25 Pass 1 of 3
G1 X59Y91.67
; Layer C25 Pass 2 of 3
G1 X58.238Y92.198
; Layer C25 Pass 3 of 3
G1 X59Y91.67
G0 X59Y91.67
; Layer C25 Pass 1 of 3
G1 Y93.979
; Layer C25 Pass 2 of 3
G1 Y91.67
; Layer C25 Pass 3 of 3
G1 Y93.979
G0 X59.762Y92.198
; Layer C25 Pass 1 of 3
G1 X59Y91.67
; Layer C25 Pass 2 of 3
G1 X59.762Y92.198
; Layer C25 Pass 3 of 3
G1 X59Y91.67
G0 X59.005Y91.641
; Layer C25 Pass 1 of 3
G1 X59.767Y92.169
; Layer C25 Pass 2 of 3
G1 X59.005Y91.641
; Layer C25 Pass 3 of 3
G1 X59.767Y92.169
G0 X90.516Y93.983
; Layer C25 Pass 1 of 3
G1 X98.574
; Layer C25 Pass 2 of 3
G1 X90.516
; Layer C25 Pass 3 of 3
G1 X98.574
G0 X98.569Y93.979
; Layer C25 Pass 1 of 3
G1 Y91.67
; Layer C25 Pass 2 of 3
G1 Y93.979
; Layer C25 Pass 3 of 3
G1 Y91.67
G0 X98.569Y91.67
; Layer C25 Pass 1 of 3
G1 X99.331Y92.198
; Layer C25 Pass 2 of 3
G1 X98.569Y91.67
; Layer C25 Pass 3 of 3
G1 X99.331Y92.198
G0 X99.335Y92.169
; Layer C25 Pass 1 of 3
G1 X98.573Y91.641
; Layer C25 Pass 2 of 3
G1 X99.335Y92.169
; Layer C25 Pass 3 of 3
G1 X98.573Y91.641
G0 X98.573Y91.641
; Layer C25 Pass 1 of 3
G1 X97.811Y92.169
; Layer C25 Pass 2 of 3
G1 X98.573Y91.641
; Layer C25 Pass 3 of 3
G1 X97.811Y92.169
G0 X97.807Y92.198
; Layer C25 Pass 1 of 3
G1 X98.569Y91.67
; Layer C25 Pass 2 of 3
G1 X97.807Y92.198
; Layer C25 Pass 3 of 3
G1 X98.569Y91.67
G0 X101.512Y91.949
; Layer C25 Pass 1 of 3
G1 X102.714
G1 X103.331Y91.956
G1 X103.558Y91.96
G1 X103.591Y91.963
G1 Y95.448
; Layer C25 Pass 2 of 3
G1 Y91.963
G1 X103.558Y91.96
G1 X103.331Y91.956
G1 X102.714Y91.951
G1 X101.512
; Layer C25 Pass 3 of 3
G1 X102.714
G1 X103.331Y91.956
G1 X103.558Y91.96
G1 X103.591Y91.963
G1 Y95.448
G0 X101.569Y92.017
; Layer C25 Pass 1 of 3
G1 Y87.976
; Layer C25 Pass 2 of 3
G1 Y92.017
; Layer C25 Pass 3 of 3
G1 Y87.976
G0 X101.53Y87.936
; Layer C25 Pass 1 of 3
G1 X102.701
G1 X103.302Y87.929
G1 X103.524Y87.924
G1 X103.555
G1 Y84.436
; Layer C25 Pass 2 of 3
G1 Y87.922
G1 X103.524
G1 X103.302Y87.929
G1 X102.701Y87.934
G1 X101.53
; Layer C25 Pass 3 of 3
G1 X102.701
G1 X103.302Y87.929
G1 X103.524Y87.924
G1 X103.555
G1 Y84.436
G0 X98.561Y85.98
; Layer C25 Pass 1 of 3
G1 Y87.04
; Layer C25 Pass 2 of 3
G1 Y85.98
; Layer C25 Pass 3 of 3
G1 Y87.04
G0 X98.561Y86.613
; Layer C25 Pass 1 of 3
G1 Y88.374
; Layer C25 Pass 2 of 3
G1 Y86.613
; Layer C25 Pass 3 of 3
G1 Y88.374
G0 X98.561Y88.374
; Layer C25 Pass 1 of 3
G1 X99.323Y87.846
; Layer C25 Pass 2 of 3
G1 X98.561Y88.374
; Layer C25 Pass 3 of 3
G1 X99.323Y87.846
G0 X99.325Y87.853
; Layer C25 Pass 1 of 3
G1 X98.563Y88.382
; Layer C25 Pass 2 of 3
G1 X99.325Y87.853
; Layer C25 Pass 3 of 3
G1 X98.563Y88.382
G0 X98.559Y88.383
; Layer C25 Pass 1 of 3
G1 X97.797Y87.854
; Layer C25 Pass 2 of 3
G1 X98.559Y88.383
; Layer C25 Pass 3 of 3
G1 X97.797Y87.854
G0 X97.799Y87.846
; Layer C25 Pass 1 of 3
G1 X98.561Y88.374
; Layer C25 Pass 2 of 3
G1 X97.799Y87.846
; Layer C25 Pass 3 of 3
G1 X98.561Y88.374
G0 X99.194Y88.738
; Layer C25 Pass 1 of 3
G1 X100.972Y89.972
; Layer C25 Pass 2 of 3
G1 X99.194Y88.738
; Layer C25 Pass 3 of 3
G1 X100.972Y89.972
G0 X100.972Y89.972
; Layer C25 Pass 1 of 3
G1 X101.583
; Layer C25 Pass 2 of 3
G1 X100.972
; Layer C25 Pass 3 of 3
G1 X101.583
G0 X100.96Y89.996
; Layer C25 Pass 1 of 3
G1 X99.182Y88.763
; Layer C25 Pass 2 of 3
G1 X100.96Y89.996
; Layer C25 Pass 3 of 3
G1 X99.182Y88.763
G0 X95.121Y88.658
; Layer C25 Pass 1 of 3
G1 X95.518Y88.721
G1 X95.865Y88.812
G1 X96.156Y88.926
G1 X96.384Y89.058
G1 X96.544Y89.206
G1 X96.631Y89.363
G1 X96.638Y89.528
G1 X96.56Y89.694
G1 X96.469Y89.794
G1 X96.347Y89.887
G1 X96.199Y89.973
G1 X96.025Y90.051
G1 X95.61Y90.178
G1 X95.121Y90.262
; Layer C25 Pass 2 of 3
G1 X95.61Y90.178
G1 X96.025Y90.051
G1 X96.199Y89.973
G1 X96.347Y89.887
G1 X96.469Y89.794
G1 X96.56Y89.694
G1 X96.638Y89.528
G1 X96.631Y89.363
G1 X96.544Y89.206
G1 X96.384Y89.058
G1 X96.156Y88.926
G1 X95.865Y88.812
G1 X95.518Y88.721
G1 X95.121Y88.658
; Layer C25 Pass 3 of 3
G1 X95.518Y88.721
G1 X95.865Y88.812
G1 X96.156Y88.926
G1 X96.384Y89.058
G1 X96.544Y89.206
G1 X96.631Y89.363
G1 X96.638Y89.528
G1 X96.56Y89.694
G1 X96.469Y89.794
G1 X96.347Y89.887
G1 X96.199Y89.973
G1 X96.025Y90.051
G1 X95.61Y90.178
G1 X95.121Y90.262
G0 X95.121Y90.262
; Layer C25 Pass 1 of 3
G1 X94.807Y90.273
G1 X94.517Y90.236
G1 X94.283Y90.159
G1 X94.137Y90.049
G1 X94.107Y89.987
G1 Y89.925
G1 X94.142Y89.866
G1 X94.202Y89.811
G1 X94.397Y89.718
G1 X94.675Y89.661
G1 X94.898Y89.648
G1 X95.121Y89.661
; Layer C25 Pass 2 of 3
G1 X94.898Y89.648
G1 X94.675Y89.661
G1 X94.397Y89.718
G1 X94.202Y89.811
G1 X94.142Y89.866
G1 X94.109Y89.925
G1 Y89.987
G1 X94.137Y90.049
G1 X94.283Y90.159
G1 X94.517Y90.236
G1 X94.807Y90.273
G1 X95.121Y90.262
; Layer C25 Pass 3 of 3
G1 X94.807Y90.273
G1 X94.517Y90.236
G1 X94.283Y90.159
G1 X94.137Y90.049
G1 X94.107Y89.987
G1 Y89.925
G1 X94.142Y89.866
G1 X94.202Y89.811
G1 X94.397Y89.718
G1 X94.675Y89.661
G1 X94.898Y89.648
G1 X95.121Y89.661
G0 X95.121Y89.661
; Layer C25 Pass 1 of 3
G1 X95.519Y89.722
G1 X95.867Y89.811
G1 X96.159Y89.924
G1 X96.39Y90.055
G1 X96.554Y90.201
G1 X96.644Y90.358
G1 X96.655Y90.522
G1 X96.581Y90.688
G1 X96.491Y90.79
G1 X96.369Y90.885
G1 X96.219Y90.973
G1 X96.042Y91.052
G1 X95.62Y91.181
G1 X95.121Y91.265
; Layer C25 Pass 2 of 3
G1 X95.62Y91.181
G1 X96.042Y91.052
G1 X96.219Y90.973
G1 X96.369Y90.885
G1 X96.491Y90.79
G1 X96.581Y90.688
G1 X96.655Y90.522
G1 X96.644Y90.358
G1 X96.554Y90.201
G1 X96.39Y90.055
G1 X96.159Y89.924
G1 X95.867Y89.811
G1 X95.519Y89.722
G1 X95.121Y89.661
; Layer C25 Pass 3 of 3
G1 X95.519Y89.722
G1 X95.867Y89.811
G1 X96.159Y89.924
G1 X96.39Y90.055
G1 X96.554Y90.201
G1 X96.644Y90.358
G1 X96.655Y90.522
G1 X96.581Y90.688
G1 X96.491Y90.79
G1 X96.369Y90.885
G1 X96.219Y90.973
G1 X96.042Y91.052
G1 X95.62Y91.181
G1 X95.121Y91.265
G0 X95.121Y91.265
; Layer C25 Pass 1 of 3
G1 X94.807Y91.276
G1 X94.517Y91.239
G1 X94.283Y91.162
G1 X94.137Y91.052
G1 X94.107Y90.99
G1 Y90.928
G1 X94.142Y90.869
G1 X94.202Y90.814
G1 X94.397Y90.721
G1 X94.675Y90.663
G1 X94.898Y90.651
G1 X95.121Y90.663
; Layer C25 Pass 2 of 3
G1 X94.898Y90.651
G1 X94.675Y90.663
G1 X94.397Y90.721
G1 X94.202Y90.814
G1 X94.142Y90.869
G1 X94.109Y90.928
G1 Y90.99
G1 X94.137Y91.052
G1 X94.283Y91.162
G1 X94.517Y91.239
G1 X94.807Y91.276
G1 X95.121Y91.265
; Layer C25 Pass 3 of 3
G1 X94.807Y91.276
G1 X94.517Y91.239
G1 X94.283Y91.162
G1 X94.137Y91.052
G1 X94.107Y90.99
G1 Y90.928
G1 X94.142Y90.869
G1 X94.202Y90.814
G1 X94.397Y90.721
G1 X94.675Y90.663
G1 X94.898Y90.651
G1 X95.121Y90.663
G0 X95.122Y90.663
; Layer C25 Pass 1 of 3
G1 X95.452Y90.687
G1 X95.755Y90.734
G1 X96.024Y90.803
G1 X96.252Y90.89
G1 X96.435Y90.992
G1 X96.566Y91.108
G1 X96.638Y91.233
G1 X96.646Y91.365
G1 X96.596Y91.483
G1 X96.496Y91.592
G1 X96.35Y91.69
G1 X96.165Y91.777
G1 X95.945Y91.851
G1 X95.694Y91.908
G1 X95.419Y91.947
G1 X95.122Y91.967
; Layer C25 Pass 2 of 3
G1 X95.419Y91.947
G1 X95.694Y91.908
G1 X95.945Y91.851
G1 X96.165Y91.777
G1 X96.35Y91.69
G1 X96.496Y91.592
G1 X96.596Y91.483
G1 X96.646Y91.365
G1 X96.638Y91.233
G1 X96.566Y91.108
G1 X96.435Y90.992
G1 X96.252Y90.89
G1 X96.024Y90.803
G1 X95.755Y90.734
G1 X95.452Y90.687
G1 X95.122Y90.663
; Layer C25 Pass 3 of 3
G1 X95.452Y90.687
G1 X95.755Y90.734
G1 X96.024Y90.803
G1 X96.252Y90.89
G1 X96.435Y90.992
G1 X96.566Y91.108
G1 X96.638Y91.233
G1 X96.646Y91.365
G1 X96.596Y91.483
G1 X96.496Y91.592
G1 X96.35Y91.69
G1 X96.165Y91.777
G1 X95.945Y91.851
G1 X95.694Y91.908
G1 X95.419Y91.947
G1 X95.122Y91.967
G0 X95.121Y91.967
; Layer C25 Pass 1 of 3
G1 X92.581
; Layer C25 Pass 2 of 3
G1 X95.121
; Layer C25 Pass 3 of 3
G1 X92.581
G0 X92.558Y91.96
; Layer C25 Pass 1 of 3
G1 Y95.82
; Layer C25 Pass 2 of 3
G1 Y91.96
; Layer C25 Pass 3 of 3
G1 Y95.82
G0 X90.561Y95.477
; Layer C25 Pass 1 of 3
G1 Y94.019
; Layer C25 Pass 2 of 3
G1 Y95.477
; Layer C25 Pass 3 of 3
G1 Y94.019
G0 X95.121Y89.259
; Layer C25 Pass 1 of 3
G1 X94.807Y89.27
G1 X94.517Y89.233
G1 X94.283Y89.157
G1 X94.137Y89.046
G1 X94.107Y88.984
G1 Y88.922
G1 X94.142Y88.863
G1 X94.202Y88.808
G1 X94.397Y88.716
G1 X94.675Y88.658
G1 X94.898Y88.645
G1 X95.121Y88.658
; Layer C25 Pass 2 of 3
G1 X94.898Y88.645
G1 X94.675Y88.658
G1 X94.397Y88.716
G1 X94.202Y88.808
G1 X94.142Y88.863
G1 X94.109Y88.922
G1 Y88.984
G1 X94.137Y89.046
G1 X94.283Y89.157
G1 X94.517Y89.233
G1 X94.807Y89.27
G1 X95.121Y89.259
; Layer C25 Pass 3 of 3
G1 X94.807Y89.27
G1 X94.517Y89.233
G1 X94.283Y89.157
G1 X94.137Y89.046
G1 X94.107Y88.984
G1 Y88.922
G1 X94.142Y88.863
G1 X94.202Y88.808
G1 X94.397Y88.716
G1 X94.675Y88.658
G1 X94.898Y88.645
G1 X95.121Y88.658
G0 X95.121Y89.259
; Layer C25 Pass 1 of 3
G1 X95.417Y89.24
G1 X95.693Y89.2
G1 X95.944Y89.143
G1 X96.164Y89.07
G1 X96.349Y88.983
G1 X96.494Y88.884
G1 X96.594Y88.775
G1 X96.644Y88.658
G1 X96.636Y88.525
G1 X96.564Y88.4
G1 X96.434Y88.285
G1 X96.251Y88.182
G1 X96.022Y88.095
G1 X95.754Y88.027
G1 X95.451Y87.979
G1 X95.121Y87.956
; Layer C25 Pass 2 of 3
G1 X95.451Y87.979
G1 X95.754Y88.027
G1 X96.022Y88.095
G1 X96.251Y88.182
G1 X96.434Y88.285
G1 X96.564Y88.4
G1 X96.636Y88.525
G1 X96.644Y88.658
G1 X96.594Y88.775
G1 X96.494Y88.884
G1 X96.349Y88.983
G1 X96.164Y89.07
G1 X95.944Y89.143
G1 X95.693Y89.2
G1 X95.417Y89.24
G1 X95.121Y89.259
; Layer C25 Pass 3 of 3
G1 X95.417Y89.24
G1 X95.693Y89.2
G1 X95.944Y89.143
G1 X96.164Y89.07
G1 X96.349Y88.983
G1 X96.494Y88.884
G1 X96.594Y88.775
G1 X96.644Y88.658
G1 X96.636Y88.525
G1 X96.564Y88.4
G1 X96.434Y88.285
G1 X96.251Y88.182
G1 X96.022Y88.095
G1 X95.754Y88.027
G1 X95.451Y87.979
G1 X95.121Y87.956
G0 X95.121Y87.956
; Layer C25 Pass 1 of 3
G1 X92.581
; Layer C25 Pass 2 of 3
G1 X95.121
; Layer C25 Pass 3 of 3
G1 X92.581
G0 X92.539Y87.978
; Layer C25 Pass 1 of 3
G1 Y84.152
; Layer C25 Pass 2 of 3
G1 Y87.978
; Layer C25 Pass 3 of 3
G1 Y84.152
G0 X90.561Y84.437
; Layer C25 Pass 1 of 3
G1 Y86.003
; Layer C25 Pass 2 of 3
G1 Y84.437
; Layer C25 Pass 3 of 3
G1 Y86.003
G0 X90.553Y85.981
; Layer C25 Pass 1 of 3
G1 X98.558
; Layer C25 Pass 2 of 3
G1 X90.553
; Layer C25 Pass 3 of 3
G1 X98.558
G0 X115.553Y85.981
; Layer C25 Pass 1 of 3
G1 X123.558
; Layer C25 Pass 2 of 3
G1 X115.553
; Layer C25 Pass 3 of 3
G1 X123.558
G0 X123.561Y85.98
; Layer C25 Pass 1 of 3
G1 Y87.04
; Layer C25 Pass 2 of 3
G1 Y85.98
; Layer C25 Pass 3 of 3
G1 Y87.04
G0 X123.561Y86.613
; Layer C25 Pass 1 of 3
G1 Y88.374
; Layer C25 Pass 2 of 3
G1 Y86.613
; Layer C25 Pass 3 of 3
G1 Y88.374
G0 X123.561Y88.374
; Layer C25 Pass 1 of 3
G1 X124.323Y87.846
; Layer C25 Pass 2 of 3
G1 X123.561Y88.374
; Layer C25 Pass 3 of 3
G1 X124.323Y87.846
G0 X124.325Y87.853
; Layer C25 Pass 1 of 3
G1 X123.563Y88.382
; Layer C25 Pass 2 of 3
G1 X124.325Y87.853
; Layer C25 Pass 3 of 3
G1 X123.563Y88.382
G0 X123.559Y88.383
; Layer C25 Pass 1 of 3
G1 X122.797Y87.854
; Layer C25 Pass 2 of 3
G1 X123.559Y88.383
; Layer C25 Pass 3 of 3
G1 X122.797Y87.854
G0 X122.799Y87.846
; Layer C25 Pass 1 of 3
G1 X123.561Y88.374
; Layer C25 Pass 2 of 3
G1 X122.799Y87.846
; Layer C25 Pass 3 of 3
G1 X123.561Y88.374
G0 X124.194Y88.738
; Layer C25 Pass 1 of 3
G1 X125.972Y89.972
; Layer C25 Pass 2 of 3
G1 X124.194Y88.738
; Layer C25 Pass 3 of 3
G1 X125.972Y89.972
G0 X125.972Y89.972
; Layer C25 Pass 1 of 3
G1 X126.583
; Layer C25 Pass 2 of 3
G1 X125.972
; Layer C25 Pass 3 of 3
G1 X126.583
G0 X125.96Y89.996
; Layer C25 Pass 1 of 3
G1 X124.182Y88.763
; Layer C25 Pass 2 of 3
G1 X125.96Y89.996
; Layer C25 Pass 3 of 3
G1 X124.182Y88.763
G0 X126.53Y87.936
; Layer C25 Pass 1 of 3
G1 X127.701
G1 X128.302Y87.929
G1 X128.524Y87.924
G1 X128.555
G1 Y84.436
; Layer C25 Pass 2 of 3
G1 Y87.922
G1 X128.524
G1 X128.302Y87.929
G1 X127.701Y87.934
G1 X126.53
; Layer C25 Pass 3 of 3
G1 X127.701
G1 X128.302Y87.929
G1 X128.524Y87.924
G1 X128.555
G1 Y84.436
G0 X126.569Y87.976
; Layer C25 Pass 1 of 3
G1 Y92.017
; Layer C25 Pass 2 of 3
G1 Y87.976
; Layer C25 Pass 3 of 3
G1 Y92.017
G0 X126.512Y91.949
; Layer C25 Pass 1 of 3
G1 X127.714
G1 X128.331Y91.956
G1 X128.558Y91.96
G1 X128.591Y91.963
G1 Y95.448
; Layer C25 Pass 2 of 3
G1 Y91.963
G1 X128.558Y91.96
G1 X128.331Y91.956
G1 X127.714Y91.951
G1 X126.512
; Layer C25 Pass 3 of 3
G1 X127.714
G1 X128.331Y91.956
G1 X128.558Y91.96
G1 X128.591Y91.963
G1 Y95.448
G0 X123.574Y93.983
; Layer C25 Pass 1 of 3
G1 X115.516
; Layer C25 Pass 2 of 3
G1 X123.574
; Layer C25 Pass 3 of 3
G1 X115.516
G0 X115.561Y94.019
; Layer C25 Pass 1 of 3
G1 Y95.477
; Layer C25 Pass 2 of 3
G1 Y94.019
; Layer C25 Pass 3 of 3
G1 Y95.477
G0 X117.558Y95.82
; Layer C25 Pass 1 of 3
G1 Y91.96
; Layer C25 Pass 2 of 3
G1 Y95.82
; Layer C25 Pass 3 of 3
G1 Y91.96
G0 X117.581Y91.967
; Layer C25 Pass 1 of 3
G1 X120.121
; Layer C25 Pass 2 of 3
G1 X117.581
; Layer C25 Pass 3 of 3
G1 X120.121
G0 X120.122Y91.967
; Layer C25 Pass 1 of 3
G1 X120.419Y91.947
G1 X120.694Y91.908
G1 X120.945Y91.851
G1 X121.165Y91.777
G1 X121.35Y91.69
G1 X121.496Y91.592
G1 X121.596Y91.483
G1 X121.646Y91.365
G1 X121.638Y91.233
G1 X121.566Y91.108
G1 X121.435Y90.992
G1 X121.252Y90.89
G1 X121.024Y90.803
G1 X120.755Y90.734
G1 X120.452Y90.687
G1 X120.122Y90.663
; Layer C25 Pass 2 of 3
G1 X120.452Y90.687
G1 X120.755Y90.734
G1 X121.024Y90.803
G1 X121.252Y90.89
G1 X121.435Y90.992
G1 X121.566Y91.108
G1 X121.638Y91.233
G1 X121.646Y91.365
G1 X121.596Y91.483
G1 X121.496Y91.592
G1 X121.35Y91.69
G1 X121.165Y91.777
G1 X120.945Y91.851
G1 X120.694Y91.908
G1 X120.419Y91.947
G1 X120.122Y91.967
; Layer C25 Pass 3 of 3
G1 X120.419Y91.947
G1 X120.694Y91.908
G1 X120.945Y91.851
G1 X121.165Y91.777
G1 X121.35Y91.69
G1 X121.496Y91.592
G1 X121.596Y91.483
G1 X121.646Y91.365
G1 X121.638Y91.233
G1 X121.566Y91.108
G1 X121.435Y90.992
G1 X121.252Y90.89
G1 X121.024Y90.803
G1 X120.755Y90.734
G1 X120.452Y90.687
G1 X120.122Y90.663
G0 X120.121Y90.663
; Layer C25 Pass 1 of 3
G1 X119.898Y90.651
G1 X119.675Y90.663
G1 X119.397Y90.721
G1 X119.202Y90.814
G1 X119.142Y90.869
G1 X119.109Y90.928
G1 Y90.99
G1 X119.137Y91.052
G1 X119.283Y91.162
G1 X119.517Y91.239
G1 X119.807Y91.276
G1 X120.121Y91.265
; Layer C25 Pass 2 of 3
G1 X119.807Y91.276
G1 X119.517Y91.239
G1 X119.283Y91.162
G1 X119.137Y91.052
G1 X119.107Y90.99
G1 Y90.928
G1 X119.142Y90.869
G1 X119.202Y90.814
G1 X119.397Y90.721
G1 X119.675Y90.663
G1 X119.898Y90.651
G1 X120.121Y90.663
; Layer C25 Pass 3 of 3
G1 X119.898Y90.651
G1 X119.675Y90.663
G1 X119.397Y90.721
G1 X119.202Y90.814
G1 X119.142Y90.869
G1 X119.109Y90.928
G1 Y90.99
G1 X119.137Y91.052
G1 X119.283Y91.162
G1 X119.517Y91.239
G1 X119.807Y91.276
G1 X120.121Y91.265
G0 X120.121Y91.265
; Layer C25 Pass 1 of 3
G1 X120.62Y91.181
G1 X121.042Y91.052
G1 X121.219Y90.973
G1 X121.369Y90.885
G1 X121.491Y90.79
G1 X121.581Y90.688
G1 X121.655Y90.522
G1 X121.644Y90.358
G1 X121.554Y90.201
G1 X121.39Y90.055
G1 X121.159Y89.924
G1 X120.867Y89.811
G1 X120.519Y89.722
G1 X120.121Y89.661
; Layer C25 Pass 2 of 3
G1 X120.519Y89.722
G1 X120.867Y89.811
G1 X121.159Y89.924
G1 X121.39Y90.055
G1 X121.554Y90.201
G1 X121.644Y90.358
G1 X121.655Y90.522
G1 X121.581Y90.688
G1 X121.491Y90.79
G1 X121.369Y90.885
G1 X121.219Y90.973
G1 X121.042Y91.052
G1 X120.62Y91.181
G1 X120.121Y91.265
; Layer C25 Pass 3 of 3
G1 X120.62Y91.181
G1 X121.042Y91.052
G1 X121.219Y90.973
G1 X121.369Y90.885
G1 X121.491Y90.79
G1 X121.581Y90.688
G1 X121.655Y90.522
G1 X121.644Y90.358
G1 X121.554Y90.201
G1 X121.39Y90.055
G1 X121.159Y89.924
G1 X120.867Y89.811
G1 X120.519Y89.722
G1 X120.121Y89.661
G0 X120.121Y89.661
; Layer C25 Pass 1 of 3
G1 X119.898Y89.648
G1 X119.675Y89.661
G1 X119.397Y89.718
G1 X119.202Y89.811
G1 X119.142Y89.866
G1 X119.109Y89.925
G1 Y89.987
G1 X119.137Y90.049
G1 X119.283Y90.159
G1 X119.517Y90.236
G1 X119.807Y90.273
G1 X120.121Y90.262
; Layer C25 Pass 2 of 3
G1 X119.807Y90.273
G1 X119.517Y90.236
G1 X119.283Y90.159
G1 X119.137Y90.049
G1 X119.107Y89.987
G1 Y89.925
G1 X119.142Y89.866
G1 X119.202Y89.811
G1 X119.397Y89.718
G1 X119.675Y89.661
G1 X119.898Y89.648
G1 X120.121Y89.661
; Layer C25 Pass 3 of 3
G1 X119.898Y89.648
G1 X119.675Y89.661
G1 X119.397Y89.718
G1 X119.202Y89.811
G1 X119.142Y89.866
G1 X119.109Y89.925
G1 Y89.987
G1 X119.137Y90.049
G1 X119.283Y90.159
G1 X119.517Y90.236
G1 X119.807Y90.273
G1 X120.121Y90.262
G0 X120.121Y90.262
; Layer C25 Pass 1 of 3
G1 X120.61Y90.178
G1 X121.025Y90.051
G1 X121.199Y89.973
G1 X121.347Y89.887
G1 X121.469Y89.794
G1 X121.56Y89.694
G1 X121.638Y89.528
G1 X121.631Y89.363
G1 X121.544Y89.206
G1 X121.384Y89.058
G1 X121.156Y88.926
G1 X120.865Y88.812
G1 X120.518Y88.721
G1 X120.121Y88.658
; Layer C25 Pass 2 of 3
G1 X120.518Y88.721
G1 X120.865Y88.812
G1 X121.156Y88.926
G1 X121.384Y89.058
G1 X121.544Y89.206
G1 X121.631Y89.363
G1 X121.638Y89.528
G1 X121.56Y89.694
G1 X121.469Y89.794
G1 X121.347Y89.887
G1 X121.199Y89.973
G1 X121.025Y90.051
G1 X120.61Y90.178
G1 X120.121Y90.262
; Layer C25 Pass 3 of 3
G1 X120.61Y90.178
G1 X121.025Y90.051
G1 X121.199Y89.973
G1 X121.347Y89.887
G1 X121.469Y89.794
G1 X121.56Y89.694
G1 X121.638Y89.528
G1 X121.631Y89.363
G1 X121.544Y89.206
G1 X121.384Y89.058
G1 X121.156Y88.926
G1 X120.865Y88.812
G1 X120.518Y88.721
G1 X120.121Y88.658
G0 X120.121Y88.658
; Layer C25 Pass 1 of 3
G1 X119.898Y88.645
G1 X119.675Y88.658
G1 X119.397Y88.716
G1 X119.202Y88.808
G1 X119.142Y88.863
G1 X119.109Y88.922
G1 Y88.984
G1 X119.137Y89.046
G1 X119.283Y89.157
G1 X119.517Y89.233
G1 X119.807Y89.27
G1 X120.121Y89.259
; Layer C25 Pass 2 of 3
G1 X119.807Y89.27
G1 X119.517Y89.233
G1 X119.283Y89.157
G1 X119.137Y89.046
G1 X119.107Y88.984
G1 Y88.922
G1 X119.142Y88.863
G1 X119.202Y88.808
G1 X119.397Y88.716
G1 X119.675Y88.658
G1 X119.898Y88.645
G1 X120.121Y88.658
; Layer C25 Pass 3 of 3
G1 X119.898Y88.645
G1 X119.675Y88.658
G1 X119.397Y88.716
G1 X119.202Y88.808
G1 X119.142Y88.863
G1 X119.109Y88.922
G1 Y88.984
G1 X119.137Y89.046
G1 X119.283Y89.157
G1 X119.517Y89.233
G1 X119.807Y89.27
G1 X120.121Y89.259
G0 X120.121Y89.259
; Layer C25 Pass 1 of 3
G1 X120.417Y89.24
G1 X120.693Y89.2
G1 X120.944Y89.143
G1 X121.164Y89.07
G1 X121.349Y88.983
G1 X121.494Y88.884
G1 X121.594Y88.775
G1 X121.644Y88.658
G1 X121.636Y88.525
G1 X121.564Y88.4
G1 X121.434Y88.285
G1 X121.251Y88.182
G1 X121.022Y88.095
G1 X120.754Y88.027
G1 X120.451Y87.979
G1 X120.121Y87.956
; Layer C25 Pass 2 of 3
G1 X120.451Y87.979
G1 X120.754Y88.027
G1 X121.022Y88.095
G1 X121.251Y88.182
G1 X121.434Y88.285
G1 X121.564Y88.4
G1 X121.636Y88.525
G1 X121.644Y88.658
G1 X121.594Y88.775
G1 X121.494Y88.884
G1 X121.349Y88.983
G1 X121.164Y89.07
G1 X120.944Y89.143
G1 X120.693Y89.2
G1 X120.417Y89.24
G1 X120.121Y89.259
; Layer C25 Pass 3 of 3
G1 X120.417Y89.24
G1 X120.693Y89.2
G1 X120.944Y89.143
G1 X121.164Y89.07
G1 X121.349Y88.983
G1 X121.494Y88.884
G1 X121.594Y88.775
G1 X121.644Y88.658
G1 X121.636Y88.525
G1 X121.564Y88.4
G1 X121.434Y88.285
G1 X121.251Y88.182
G1 X121.022Y88.095
G1 X120.754Y88.027
G1 X120.451Y87.979
G1 X120.121Y87.956
G0 X120.121Y87.956
; Layer C25 Pass 1 of 3
G1 X117.581
; Layer C25 Pass 2 of 3
G1 X120.121
; Layer C25 Pass 3 of 3
G1 X117.581
G0 X117.539Y87.978
; Layer C25 Pass 1 of 3
G1 Y84.152
; Layer C25 Pass 2 of 3
G1 Y87.978
; Layer C25 Pass 3 of 3
G1 Y84.152
G0 X115.561Y84.437
; Layer C25 Pass 1 of 3
G1 Y86.003
; Layer C25 Pass 2 of 3
G1 Y84.437
; Layer C25 Pass 3 of 3
G1 Y86.003
G0 X123.573Y91.641
; Layer C25 Pass 1 of 3
G1 X122.811Y92.169
; Layer C25 Pass 2 of 3
G1 X123.573Y91.641
; Layer C25 Pass 3 of 3
G1 X122.811Y92.169
G0 X122.807Y92.198
; Layer C25 Pass 1 of 3
G1 X123.569Y91.67
; Layer C25 Pass 2 of 3
G1 X122.807Y92.198
; Layer C25 Pass 3 of 3
G1 X123.569Y91.67
G0 X123.569Y91.67
; Layer C25 Pass 1 of 3
G1 Y93.979
; Layer C25 Pass 2 of 3
G1 Y91.67
; Layer C25 Pass 3 of 3
G1 Y93.979
G0 X124.331Y92.198
; Layer C25 Pass 1 of 3
G1 X123.569Y91.67
; Layer C25 Pass 2 of 3
G1 X124.331Y92.198
; Layer C25 Pass 3 of 3
G1 X123.569Y91.67
G0 X123.573Y91.641
; Layer C25 Pass 1 of 3
G1 X124.335Y92.169
; Layer C25 Pass 2 of 3
G1 X123.573Y91.641
; Layer C25 Pass 3 of 3
G1 X124.335Y92.169
G0 X155.085Y93.983
; Layer C25 Pass 1 of 3
G1 X163.142
; Layer C25 Pass 2 of 3
G1 X155.085
; Layer C25 Pass 3 of 3
G1 X163.142
G0 X163.137Y93.979
; Layer C25 Pass 1 of 3
G1 Y91.67
; Layer C25 Pass 2 of 3
G1 Y93.979
; Layer C25 Pass 3 of 3
G1 Y91.67
G0 X163.137Y91.67
; Layer C25 Pass 1 of 3
G1 X163.899Y92.198
; Layer C25 Pass 2 of 3
G1 X163.137Y91.67
; Layer C25 Pass 3 of 3
G1 X163.899Y92.198
G0 X163.904Y92.169
; Layer C25 Pass 1 of 3
G1 X163.142Y91.641
; Layer C25 Pass 2 of 3
G1 X163.904Y92.169
; Layer C25 Pass 3 of 3
G1 X163.142Y91.641
G0 X163.142Y91.641
; Layer C25 Pass 1 of 3
G1 X162.38Y92.169
; Layer C25 Pass 2 of 3
G1 X163.142Y91.641
; Layer C25 Pass 3 of 3
G1 X162.38Y92.169
G0 X162.375Y92.198
; Layer C25 Pass 1 of 3
G1 X163.137Y91.67
; Layer C25 Pass 2 of 3
G1 X162.375Y92.198
; Layer C25 Pass 3 of 3
G1 X163.137Y91.67
G0 X166.08Y91.949
; Layer C25 Pass 1 of 3
G1 X167.282
G1 X167.9Y91.956
G1 X168.127Y91.96
G1 X168.16Y91.963
G1 Y95.448
; Layer C25 Pass 2 of 3
G1 Y91.963
G1 X168.127Y91.96
G1 X167.9Y91.956
G1 X167.282Y91.951
G1 X166.08
; Layer C25 Pass 3 of 3
G1 X167.282
G1 X167.9Y91.956
G1 X168.127Y91.96
G1 X168.16Y91.963
G1 Y95.448
G0 X166.137Y92.017
; Layer C25 Pass 1 of 3
G1 Y87.976
; Layer C25 Pass 2 of 3
G1 Y92.017
; Layer C25 Pass 3 of 3
G1 Y87.976
G0 X166.098Y87.936
; Layer C25 Pass 1 of 3
G1 X167.269
G1 X167.871Y87.929
G1 X168.092Y87.924
G1 X168.124
G1 Y84.436
; Layer C25 Pass 2 of 3
G1 Y87.922
G1 X168.092
G1 X167.871Y87.929
G1 X167.269Y87.934
G1 X166.098
; Layer C25 Pass 3 of 3
G1 X167.269
G1 X167.871Y87.929
G1 X168.092Y87.924
G1 X168.124
G1 Y84.436
G0 X163.129Y85.98
; Layer C25 Pass 1 of 3
G1 Y87.04
; Layer C25 Pass 2 of 3
G1 Y85.98
; Layer C25 Pass 3 of 3
G1 Y87.04
G0 X163.129Y86.613
; Layer C25 Pass 1 of 3
G1 Y88.374
; Layer C25 Pass 2 of 3
G1 Y86.613
; Layer C25 Pass 3 of 3
G1 Y88.374
G0 X163.129Y88.374
; Layer C25 Pass 1 of 3
G1 X163.891Y87.846
; Layer C25 Pass 2 of 3
G1 X163.129Y88.374
; Layer C25 Pass 3 of 3
G1 X163.891Y87.846
G0 X163.893Y87.853
; Layer C25 Pass 1 of 3
G1 X163.131Y88.382
; Layer C25 Pass 2 of 3
G1 X163.893Y87.853
; Layer C25 Pass 3 of 3
G1 X163.131Y88.382
G0 X163.127Y88.383
; Layer C25 Pass 1 of 3
G1 X162.365Y87.854
; Layer C25 Pass 2 of 3
G1 X163.127Y88.383
; Layer C25 Pass 3 of 3
G1 X162.365Y87.854
G0 X162.367Y87.846
; Layer C25 Pass 1 of 3
G1 X163.129Y88.374
; Layer C25 Pass 2 of 3
G1 X162.367Y87.846
; Layer C25 Pass 3 of 3
G1 X163.129Y88.374
G0 X163.763Y88.738
; Layer C25 Pass 1 of 3
G1 X165.541Y89.972
; Layer C25 Pass 2 of 3
G1 X163.763Y88.738
; Layer C25 Pass 3 of 3
G1 X165.541Y89.972
G0 X165.541Y89.972
; Layer C25 Pass 1 of 3
G1 X166.151
; Layer C25 Pass 2 of 3
G1 X165.541
; Layer C25 Pass 3 of 3
G1 X166.151
G0 X165.528Y89.996
; Layer C25 Pass 1 of 3
G1 X163.75Y88.763
; Layer C25 Pass 2 of 3
G1 X165.528Y89.996
; Layer C25 Pass 3 of 3
G1 X163.75Y88.763
G0 X159.689Y88.658
; Layer C25 Pass 1 of 3
G1 X160.087Y88.721
G1 X160.434Y88.812
G1 X160.724Y88.926
G1 X160.953Y89.058
G1 X161.113Y89.206
G1 X161.2Y89.363
G1 X161.207Y89.528
G1 X161.129Y89.694
G1 X161.037Y89.794
G1 X160.916Y89.887
G1 X160.767Y89.973
G1 X160.593Y90.051
G1 X160.179Y90.178
G1 X159.689Y90.262
; Layer C25 Pass 2 of 3
G1 X160.179Y90.178
G1 X160.593Y90.051
G1 X160.767Y89.973
G1 X160.916Y89.887
G1 X161.037Y89.794
G1 X161.129Y89.694
G1 X161.207Y89.528
G1 X161.2Y89.363
G1 X161.113Y89.206
G1 X160.953Y89.058
G1 X160.724Y88.926
G1 X160.434Y88.812
G1 X160.087Y88.721
G1 X159.689Y88.658
; Layer C25 Pass 3 of 3
G1 X160.087Y88.721
G1 X160.434Y88.812
G1 X160.724Y88.926
G1 X160.953Y89.058
G1 X161.113Y89.206
G1 X161.2Y89.363
G1 X161.207Y89.528
G1 X161.129Y89.694
G1 X161.037Y89.794
G1 X160.916Y89.887
G1 X160.767Y89.973
G1 X160.593Y90.051
G1 X160.179Y90.178
G1 X159.689Y90.262
G0 X159.689Y90.262
; Layer C25 Pass 1 of 3
G1 X159.375Y90.273
G1 X159.085Y90.236
G1 X158.852Y90.159
G1 X158.705Y90.049
G1 X158.676Y89.987
G1 Y89.925
G1 X158.71Y89.866
G1 X158.771Y89.811
G1 X158.965Y89.718
G1 X159.244Y89.661
G1 X159.467Y89.648
G1 X159.689Y89.661
; Layer C25 Pass 2 of 3
G1 X159.467Y89.648
G1 X159.244Y89.661
G1 X158.965Y89.718
G1 X158.771Y89.811
G1 X158.71Y89.866
G1 X158.678Y89.925
G1 Y89.987
G1 X158.705Y90.049
G1 X158.852Y90.159
G1 X159.085Y90.236
G1 X159.375Y90.273
G1 X159.689Y90.262
; Layer C25 Pass 3 of 3
G1 X159.375Y90.273
G1 X159.085Y90.236
G1 X158.852Y90.159
G1 X158.705Y90.049
G1 X158.676Y89.987
G1 Y89.925
G1 X158.71Y89.866
G1 X158.771Y89.811
G1 X158.965Y89.718
G1 X159.244Y89.661
G1 X159.467Y89.648
G1 X159.689Y89.661
G0 X159.689Y89.661
; Layer C25 Pass 1 of 3
G1 X160.087Y89.722
G1 X160.435Y89.811
G1 X160.728Y89.924
G1 X160.959Y90.055
G1 X161.122Y90.201
G1 X161.213Y90.358
G1 X161.224Y90.522
G1 X161.15Y90.688
G1 X161.059Y90.79
G1 X160.937Y90.885
G1 X160.787Y90.973
G1 X160.611Y91.052
G1 X160.188Y91.181
G1 X159.689Y91.265
; Layer C25 Pass 2 of 3
G1 X160.188Y91.181
G1 X160.611Y91.052
G1 X160.787Y90.973
G1 X160.937Y90.885
G1 X161.059Y90.79
G1 X161.15Y90.688
G1 X161.224Y90.522
G1 X161.213Y90.358
G1 X161.122Y90.201
G1 X160.959Y90.055
G1 X160.728Y89.924
G1 X160.435Y89.811
G1 X160.087Y89.722
G1 X159.689Y89.661
; Layer C25 Pass 3 of 3
G1 X160.087Y89.722
G1 X160.435Y89.811
G1 X160.728Y89.924
G1 X160.959Y90.055
G1 X161.122Y90.201
G1 X161.213Y90.358
G1 X161.224Y90.522
G1 X161.15Y90.688
G1 X161.059Y90.79
G1 X160.937Y90.885
G1 X160.787Y90.973
G1 X160.611Y91.052
G1 X160.188Y91.181
G1 X159.689Y91.265
G0 X159.689Y91.265
; Layer C25 Pass 1 of 3
G1 X159.375Y91.276
G1 X159.085Y91.239
G1 X158.852Y91.162
G1 X158.705Y91.052
G1 X158.676Y90.99
G1 Y90.928
G1 X158.71Y90.869
G1 X158.771Y90.814
G1 X158.965Y90.721
G1 X159.244Y90.663
G1 X159.467Y90.651
G1 X159.689Y90.663
; Layer C25 Pass 2 of 3
G1 X159.467Y90.651
G1 X159.244Y90.663
G1 X158.965Y90.721
G1 X158.771Y90.814
G1 X158.71Y90.869
G1 X158.678Y90.928
G1 Y90.99
G1 X158.705Y91.052
G1 X158.852Y91.162
G1 X159.085Y91.239
G1 X159.375Y91.276
G1 X159.689Y91.265
; Layer C25 Pass 3 of 3
G1 X159.375Y91.276
G1 X159.085Y91.239
G1 X158.852Y91.162
G1 X158.705Y91.052
G1 X158.676Y90.99
G1 Y90.928
G1 X158.71Y90.869
G1 X158.771Y90.814
G1 X158.965Y90.721
G1 X159.244Y90.663
G1 X159.467Y90.651
G1 X159.689Y90.663
G0 X159.691Y90.663
; Layer C25 Pass 1 of 3
G1 X160.021Y90.687
G1 X160.324Y90.734
G1 X160.592Y90.803
G1 X160.821Y90.89
G1 X161.004Y90.992
G1 X161.134Y91.108
G1 X161.207Y91.233
G1 X161.214Y91.365
G1 X161.164Y91.483
G1 X161.064Y91.592
G1 X160.919Y91.69
G1 X160.734Y91.777
G1 X160.514Y91.851
G1 X160.263Y91.908
G1 X159.987Y91.947
G1 X159.691Y91.967
; Layer C25 Pass 2 of 3
G1 X159.987Y91.947
G1 X160.263Y91.908
G1 X160.514Y91.851
G1 X160.734Y91.777
G1 X160.919Y91.69
G1 X161.064Y91.592
G1 X161.164Y91.483
G1 X161.214Y91.365
G1 X161.207Y91.233
G1 X161.134Y91.108
G1 X161.004Y90.992
G1 X160.821Y90.89
G1 X160.592Y90.803
G1 X160.324Y90.734
G1 X160.021Y90.687
G1 X159.691Y90.663
; Layer C25 Pass 3 of 3
G1 X160.021Y90.687
G1 X160.324Y90.734
G1 X160.592Y90.803
G1 X160.821Y90.89
G1 X161.004Y90.992
G1 X161.134Y91.108
G1 X161.207Y91.233
G1 X161.214Y91.365
G1 X161.164Y91.483
G1 X161.064Y91.592
G1 X160.919Y91.69
G1 X160.734Y91.777
G1 X160.514Y91.851
G1 X160.263Y91.908
G1 X159.987Y91.947
G1 X159.691Y91.967
G0 X159.689Y91.967
; Layer C25 Pass 1 of 3
G1 X157.149
; Layer C25 Pass 2 of 3
G1 X159.689
; Layer C25 Pass 3 of 3
G1 X157.149
G0 X157.126Y91.96
; Layer C25 Pass 1 of 3
G1 Y95.82
; Layer C25 Pass 2 of 3
G1 Y91.96
; Layer C25 Pass 3 of 3
G1 Y95.82
G0 X155.129Y95.477
; Layer C25 Pass 1 of 3
G1 Y94.019
; Layer C25 Pass 2 of 3
G1 Y95.477
; Layer C25 Pass 3 of 3
G1 Y94.019
G0 X159.689Y89.259
; Layer C25 Pass 1 of 3
G1 X159.375Y89.27
G1 X159.085Y89.233
G1 X158.852Y89.157
G1 X158.705Y89.046
G1 X158.676Y88.984
G1 Y88.922
G1 X158.71Y88.863
G1 X158.771Y88.808
G1 X158.965Y88.716
G1 X159.244Y88.658
G1 X159.467Y88.645
G1 X159.689Y88.658
; Layer C25 Pass 2 of 3
G1 X159.467Y88.645
G1 X159.244Y88.658
G1 X158.965Y88.716
G1 X158.771Y88.808
G1 X158.71Y88.863
G1 X158.678Y88.922
G1 Y88.984
G1 X158.705Y89.046
G1 X158.852Y89.157
G1 X159.085Y89.233
G1 X159.375Y89.27
G1 X159.689Y89.259
; Layer C25 Pass 3 of 3
G1 X159.375Y89.27
G1 X159.085Y89.233
G1 X158.852Y89.157
G1 X158.705Y89.046
G1 X158.676Y88.984
G1 Y88.922
G1 X158.71Y88.863
G1 X158.771Y88.808
G1 X158.965Y88.716
G1 X159.244Y88.658
G1 X159.467Y88.645
G1 X159.689Y88.658
G0 X159.689Y89.259
; Layer C25 Pass 1 of 3
G1 X159.986Y89.24
G1 X160.262Y89.2
G1 X160.512Y89.143
G1 X160.732Y89.07
G1 X160.917Y88.983
G1 X161.062Y88.884
G1 X161.162Y88.775
G1 X161.212Y88.658
G1 X161.205Y88.525
G1 X161.133Y88.4
G1 X161.002Y88.285
G1 X160.82Y88.182
G1 X160.591Y88.095
G1 X160.322Y88.027
G1 X160.02Y87.979
G1 X159.689Y87.956
; Layer C25 Pass 2 of 3
G1 X160.02Y87.979
G1 X160.322Y88.027
G1 X160.591Y88.095
G1 X160.82Y88.182
G1 X161.002Y88.285
G1 X161.133Y88.4
G1 X161.205Y88.525
G1 X161.212Y88.658
G1 X161.162Y88.775
G1 X161.062Y88.884
G1 X160.917Y88.983
G1 X160.732Y89.07
G1 X160.512Y89.143
G1 X160.262Y89.2
G1 X159.986Y89.24
G1 X159.689Y89.259
; Layer C25 Pass 3 of 3
G1 X159.986Y89.24
G1 X160.262Y89.2
G1 X160.512Y89.143
G1 X160.732Y89.07
G1 X160.917Y88.983
G1 X161.062Y88.884
G1 X161.162Y88.775
G1 X161.212Y88.658
G1 X161.205Y88.525
G1 X161.133Y88.4
G1 X161.002Y88.285
G1 X160.82Y88.182
G1 X160.591Y88.095
G1 X160.322Y88.027
G1 X160.02Y87.979
G1 X159.689Y87.956
G0 X159.689Y87.956
; Layer C25 Pass 1 of 3
G1 X157.149
; Layer C25 Pass 2 of 3
G1 X159.689
; Layer C25 Pass 3 of 3
G1 X157.149
G0 X157.108Y87.978
; Layer C25 Pass 1 of 3
G1 Y84.152
; Layer C25 Pass 2 of 3
G1 Y87.978
; Layer C25 Pass 3 of 3
G1 Y84.152
G0 X155.129Y84.437
; Layer C25 Pass 1 of 3
G1 Y86.003
; Layer C25 Pass 2 of 3
G1 Y84.437
; Layer C25 Pass 3 of 3
G1 Y86.003
G0 X155.122Y85.981
; Layer C25 Pass 1 of 3
G1 X163.126
; Layer C25 Pass 2 of 3
G1 X155.122
; Layer C25 Pass 3 of 3
G1 X163.126
G0 X180.122Y85.981
; Layer C25 Pass 1 of 3
G1 X188.126
; Layer C25 Pass 2 of 3
G1 X180.122
; Layer C25 Pass 3 of 3
G1 X188.126
G0 X188.129Y85.98
; Layer C25 Pass 1 of 3
G1 Y87.04
; Layer C25 Pass 2 of 3
G1 Y85.98
; Layer C25 Pass 3 of 3
G1 Y87.04
G0 X188.129Y86.613
; Layer C25 Pass 1 of 3
G1 Y88.374
; Layer C25 Pass 2 of 3
G1 Y86.613
; Layer C25 Pass 3 of 3
G1 Y88.374
G0 X188.129Y88.374
; Layer C25 Pass 1 of 3
G1 X188.891Y87.846
; Layer C25 Pass 2 of 3
G1 X188.129Y88.374
; Layer C25 Pass 3 of 3
G1 X188.891Y87.846
G0 X188.893Y87.853
; Layer C25 Pass 1 of 3
G1 X188.131Y88.382
; Layer C25 Pass 2 of 3
G1 X188.893Y87.853
; Layer C25 Pass 3 of 3
G1 X188.131Y88.382
G0 X188.127Y88.383
; Layer C25 Pass 1 of 3
G1 X187.365Y87.854
; Layer C25 Pass 2 of 3
G1 X188.127Y88.383
; Layer C25 Pass 3 of 3
G1 X187.365Y87.854
G0 X187.367Y87.846
; Layer C25 Pass 1 of 3
G1 X188.129Y88.374
; Layer C25 Pass 2 of 3
G1 X187.367Y87.846
; Layer C25 Pass 3 of 3
G1 X188.129Y88.374
G0 X188.763Y88.738
; Layer C25 Pass 1 of 3
G1 X190.541Y89.972
; Layer C25 Pass 2 of 3
G1 X188.763Y88.738
; Layer C25 Pass 3 of 3
G1 X190.541Y89.972
G0 X190.541Y89.972
; Layer C25 Pass 1 of 3
G1 X191.151
; Layer C25 Pass 2 of 3
G1 X190.541
; Layer C25 Pass 3 of 3
G1 X191.151
G0 X190.528Y89.996
; Layer C25 Pass 1 of 3
G1 X188.75Y88.763
; Layer C25 Pass 2 of 3
G1 X190.528Y89.996
; Layer C25 Pass 3 of 3
G1 X188.75Y88.763
G0 X191.098Y87.936
; Layer C25 Pass 1 of 3
G1 X192.269
G1 X192.871Y87.929
G1 X193.092Y87.924
G1 X193.124
G1 Y84.436
; Layer C25 Pass 2 of 3
G1 Y87.922
G1 X193.092
G1 X192.871Y87.929
G1 X192.269Y87.934
G1 X191.098
; Layer C25 Pass 3 of 3
G1 X192.269
G1 X192.871Y87.929
G1 X193.092Y87.924
G1 X193.124
G1 Y84.436
G0 X191.137Y87.976
; Layer C25 Pass 1 of 3
G1 Y92.017
; Layer C25 Pass 2 of 3
G1 Y87.976
; Layer C25 Pass 3 of 3
G1 Y92.017
G0 X191.08Y91.949
; Layer C25 Pass 1 of 3
G1 X192.282
G1 X192.9Y91.956
G1 X193.127Y91.96
G1 X193.16Y91.963
G1 Y95.448
; Layer C25 Pass 2 of 3
G1 Y91.963
G1 X193.127Y91.96
G1 X192.9Y91.956
G1 X192.282Y91.951
G1 X191.08
; Layer C25 Pass 3 of 3
G1 X192.282
G1 X192.9Y91.956
G1 X193.127Y91.96
G1 X193.16Y91.963
G1 Y95.448
G0 X188.142Y93.983
; Layer C25 Pass 1 of 3
G1 X180.085
; Layer C25 Pass 2 of 3
G1 X188.142
; Layer C25 Pass 3 of 3
G1 X180.085
G0 X180.129Y94.019
; Layer C25 Pass 1 of 3
G1 Y95.477
; Layer C25 Pass 2 of 3
G1 Y94.019
; Layer C25 Pass 3 of 3
G1 Y95.477
G0 X182.126Y95.82
; Layer C25 Pass 1 of 3
G1 Y91.96
; Layer C25 Pass 2 of 3
G1 Y95.82
; Layer C25 Pass 3 of 3
G1 Y91.96
G0 X182.149Y91.967
; Layer C25 Pass 1 of 3
G1 X184.689
; Layer C25 Pass 2 of 3
G1 X182.149
; Layer C25 Pass 3 of 3
G1 X184.689
G0 X184.691Y91.967
; Layer C25 Pass 1 of 3
G1 X184.987Y91.947
G1 X185.263Y91.908
G1 X185.514Y91.851
G1 X185.734Y91.777
G1 X185.919Y91.69
G1 X186.064Y91.592
G1 X186.164Y91.483
G1 X186.214Y91.365
G1 X186.207Y91.233
G1 X186.134Y91.108
G1 X186.004Y90.992
G1 X185.821Y90.89
G1 X185.592Y90.803
G1 X185.324Y90.734
G1 X185.021Y90.687
G1 X184.691Y90.663
; Layer C25 Pass 2 of 3
G1 X185.021Y90.687
G1 X185.324Y90.734
G1 X185.592Y90.803
G1 X185.821Y90.89
G1 X186.004Y90.992
G1 X186.134Y91.108
G1 X186.207Y91.233
G1 X186.214Y91.365
G1 X186.164Y91.483
G1 X186.064Y91.592
G1 X185.919Y91.69
G1 X185.734Y91.777
G1 X185.514Y91.851
G1 X185.263Y91.908
G1 X184.987Y91.947
G1 X184.691Y91.967
; Layer C25 Pass 3 of 3
G1 X184.987Y91.947
G1 X185.263Y91.908
G1 X185.514Y91.851
G1 X185.734Y91.777
G1 X185.919Y91.69
G1 X186.064Y91.592
G1 X186.164Y91.483
G1 X186.214Y91.365
G1 X186.207Y91.233
G1 X186.134Y91.108
G1 X186.004Y90.992
G1 X185.821Y90.89
G1 X185.592Y90.803
G1 X185.324Y90.734
G1 X185.021Y90.687
G1 X184.691Y90.663
G0 X184.689Y90.663
; Layer C25 Pass 1 of 3
G1 X184.467Y90.651
G1 X184.244Y90.663
G1 X183.965Y90.721
G1 X183.771Y90.814
G1 X183.71Y90.869
G1 X183.678Y90.928
G1 Y90.99
G1 X183.705Y91.052
G1 X183.852Y91.162
G1 X184.085Y91.239
G1 X184.375Y91.276
G1 X184.689Y91.265
; Layer C25 Pass 2 of 3
G1 X184.375Y91.276
G1 X184.085Y91.239
G1 X183.852Y91.162
G1 X183.705Y91.052
G1 X183.676Y90.99
G1 Y90.928
G1 X183.71Y90.869
G1 X183.771Y90.814
G1 X183.965Y90.721
G1 X184.244Y90.663
G1 X184.467Y90.651
G1 X184.689Y90.663
; Layer C25 Pass 3 of 3
G1 X184.467Y90.651
G1 X184.244Y90.663
G1 X183.965Y90.721
G1 X183.771Y90.814
G1 X183.71Y90.869
G1 X183.678Y90.928
G1 Y90.99
G1 X183.705Y91.052
G1 X183.852Y91.162
G1 X184.085Y91.239
G1 X184.375Y91.276
G1 X184.689Y91.265
G0 X184.689Y91.265
; Layer C25 Pass 1 of 3
G1 X185.188Y91.181
G1 X185.611Y91.052
G1 X185.787Y90.973
G1 X185.937Y90.885
G1 X186.059Y90.79
G1 X186.15Y90.688
G1 X186.224Y90.522
G1 X186.213Y90.358
G1 X186.122Y90.201
G1 X185.959Y90.055
G1 X185.728Y89.924
G1 X185.435Y89.811
G1 X185.087Y89.722
G1 X184.689Y89.661
; Layer C25 Pass 2 of 3
G1 X185.087Y89.722
G1 X185.435Y89.811
G1 X185.728Y89.924
G1 X185.959Y90.055
G1 X186.122Y90.201
G1 X186.213Y90.358
G1 X186.224Y90.522
G1 X186.15Y90.688
G1 X186.059Y90.79
G1 X185.937Y90.885
G1 X185.787Y90.973
G1 X185.611Y91.052
G1 X185.188Y91.181
G1 X184.689Y91.265
; Layer C25 Pass 3 of 3
G1 X185.188Y91.181
G1 X185.611Y91.052
G1 X185.787Y90.973
G1 X185.937Y90.885
G1 X186.059Y90.79
G1 X186.15Y90.688
G1 X186.224Y90.522
G1 X186.213Y90.358
G1 X186.122Y90.201
G1 X185.959Y90.055
G1 X185.728Y89.924
G1 X185.435Y89.811
G1 X185.087Y89.722
G1 X184.689Y89.661
G0 X184.689Y89.661
; Layer C25 Pass 1 of 3
G1 X184.467Y89.648
G1 X184.244Y89.661
G1 X183.965Y89.718
G1 X183.771Y89.811
G1 X183.71Y89.866
G1 X183.678Y89.925
G1 Y89.987
G1 X183.705Y90.049
G1 X183.852Y90.159
G1 X184.085Y90.236
G1 X184.375Y90.273
G1 X184.689Y90.262
; Layer C25 Pass 2 of 3
G1 X184.375Y90.273
G1 X184.085Y90.236
G1 X183.852Y90.159
G1 X183.705Y90.049
G1 X183.676Y89.987
G1 Y89.925
G1 X183.71Y89.866
G1 X183.771Y89.811
G1 X183.965Y89.718
G1 X184.244Y89.661
G1 X184.467Y89.648
G1 X184.689Y89.661
; Layer C25 Pass 3 of 3
G1 X184.467Y89.648
G1 X184.244Y89.661
G1 X183.965Y89.718
G1 X183.771Y89.811
G1 X183.71Y89.866
G1 X183.678Y89.925
G1 Y89.987
G1 X183.705Y90.049
G1 X183.852Y90.159
G1 X184.085Y90.236
G1 X184.375Y90.273
G1 X184.689Y90.262
G0 X184.689Y90.262
; Layer C25 Pass 1 of 3
G1 X185.179Y90.178
G1 X185.593Y90.051
G1 X185.767Y89.973
G1 X185.916Y89.887
G1 X186.037Y89.794
G1 X186.129Y89.694
G1 X186.207Y89.528
G1 X186.2Y89.363
G1 X186.113Y89.206
G1 X185.953Y89.058
G1 X185.724Y88.926
G1 X185.434Y88.812
G1 X185.087Y88.721
G1 X184.689Y88.658
; Layer C25 Pass 2 of 3
G1 X185.087Y88.721
G1 X185.434Y88.812
G1 X185.724Y88.926
G1 X185.953Y89.058
G1 X186.113Y89.206
G1 X186.2Y89.363
G1 X186.207Y89.528
G1 X186.129Y89.694
G1 X186.037Y89.794
G1 X185.916Y89.887
G1 X185.767Y89.973
G1 X185.593Y90.051
G1 X185.179Y90.178
G1 X184.689Y90.262
; Layer C25 Pass 3 of 3
G1 X185.179Y90.178
G1 X185.593Y90.051
G1 X185.767Y89.973
G1 X185.916Y89.887
G1 X186.037Y89.794
G1 X186.129Y89.694
G1 X186.207Y89.528
G1 X186.2Y89.363
G1 X186.113Y89.206
G1 X185.953Y89.058
G1 X185.724Y88.926
G1 X185.434Y88.812
G1 X185.087Y88.721
G1 X184.689Y88.658
G0 X184.689Y88.658
; Layer C25 Pass 1 of 3
G1 X184.467Y88.645
G1 X184.244Y88.658
G1 X183.965Y88.716
G1 X183.771Y88.808
G1 X183.71Y88.863
G1 X183.678Y88.922
G1 Y88.984
G1 X183.705Y89.046
G1 X183.852Y89.157
G1 X184.085Y89.233
G1 X184.375Y89.27
G1 X184.689Y89.259
; Layer C25 Pass 2 of 3
G1 X184.375Y89.27
G1 X184.085Y89.233
G1 X183.852Y89.157
G1 X183.705Y89.046
G1 X183.676Y88.984
G1 Y88.922
G1 X183.71Y88.863
G1 X183.771Y88.808
G1 X183.965Y88.716
G1 X184.244Y88.658
G1 X184.467Y88.645
G1 X184.689Y88.658
; Layer C25 Pass 3 of 3
G1 X184.467Y88.645
G1 X184.244Y88.658
G1 X183.965Y88.716
G1 X183.771Y88.808
G1 X183.71Y88.863
G1 X183.678Y88.922
G1 Y88.984
G1 X183.705Y89.046
G1 X183.852Y89.157
G1 X184.085Y89.233
G1 X184.375Y89.27
G1 X184.689Y89.259
G0 X184.689Y89.259
; Layer C25 Pass 1 of 3
G1 X184.986Y89.24
G1 X185.262Y89.2
G1 X185.512Y89.143
G1 X185.732Y89.07
G1 X185.917Y88.983
G1 X186.062Y88.884
G1 X186.162Y88.775
G1 X186.212Y88.658
G1 X186.205Y88.525
G1 X186.133Y88.4
G1 X186.002Y88.285
G1 X185.82Y88.182
G1 X185.591Y88.095
G1 X185.322Y88.027
G1 X185.02Y87.979
G1 X184.689Y87.956
; Layer C25 Pass 2 of 3
G1 X185.02Y87.979
G1 X185.322Y88.027
G1 X185.591Y88.095
G1 X185.82Y88.182
G1 X186.002Y88.285
G1 X186.133Y88.4
G1 X186.205Y88.525
G1 X186.212Y88.658
G1 X186.162Y88.775
G1 X186.062Y88.884
G1 X185.917Y88.983
G1 X185.732Y89.07
G1 X185.512Y89.143
G1 X185.262Y89.2
G1 X184.986Y89.24
G1 X184.689Y89.259
; Layer C25 Pass 3 of 3
G1 X184.986Y89.24
G1 X185.262Y89.2
G1 X185.512Y89.143
G1 X185.732Y89.07
G1 X185.917Y88.983
G1 X186.062Y88.884
G1 X186.162Y88.775
G1 X186.212Y88.658
G1 X186.205Y88.525
G1 X186.133Y88.4
G1 X186.002Y88.285
G1 X185.82Y88.182
G1 X185.591Y88.095
G1 X185.322Y88.027
G1 X185.02Y87.979
G1 X184.689Y87.956
G0 X184.689Y87.956
; Layer C25 Pass 1 of 3
G1 X182.149
; Layer C25 Pass 2 of 3
G1 X184.689
; Layer C25 Pass 3 of 3
G1 X182.149
G0 X182.108Y87.978
; Layer C25 Pass 1 of 3
G1 Y84.152
; Layer C25 Pass 2 of 3
G1 Y87.978
; Layer C25 Pass 3 of 3
G1 Y84.152
G0 X180.129Y84.437
; Layer C25 Pass 1 of 3
G1 Y86.003
; Layer C25 Pass 2 of 3
G1 Y84.437
; Layer C25 Pass 3 of 3
G1 Y86.003
G0 X188.142Y91.641
; Layer C25 Pass 1 of 3
G1 X187.38Y92.169
; Layer C25 Pass 2 of 3
G1 X188.142Y91.641
; Layer C25 Pass 3 of 3
G1 X187.38Y92.169
G0 X187.375Y92.198
; Layer C25 Pass 1 of 3
G1 X188.137Y91.67
; Layer C25 Pass 2 of 3
G1 X187.375Y92.198
; Layer C25 Pass 3 of 3
G1 X188.137Y91.67
G0 X188.137Y91.67
; Layer C25 Pass 1 of 3
G1 Y93.979
; Layer C25 Pass 2 of 3
G1 Y91.67
; Layer C25 Pass 3 of 3
G1 Y93.979
G0 X188.899Y92.198
; Layer C25 Pass 1 of 3
G1 X188.137Y91.67
; Layer C25 Pass 2 of 3
G1 X188.899Y92.198
; Layer C25 Pass 3 of 3
G1 X188.137Y91.67
G0 X188.142Y91.641
; Layer C25 Pass 1 of 3
G1 X188.904Y92.169
; Layer C25 Pass 2 of 3
G1 X188.142Y91.641
; Layer C25 Pass 3 of 3
G1 X188.904Y92.169
G0 X181.97Y122.652
; Layer C25 Pass 1 of 3
G1 Y126.478
; Layer C25 Pass 2 of 3
G1 Y122.652
; Layer C25 Pass 3 of 3
G1 Y126.478
G0 X182.012Y126.456
; Layer C25 Pass 1 of 3
G1 X184.552
; Layer C25 Pass 2 of 3
G1 X182.012
; Layer C25 Pass 3 of 3
G1 X184.552
G0 X184.552Y126.456
; Layer C25 Pass 1 of 3
G1 X184.882Y126.479
G1 X185.185Y126.527
G1 X185.454Y126.595
G1 X185.682Y126.682
G1 X185.865Y126.785
G1 X185.996Y126.9
G1 X186.068Y127.025
G1 X186.075Y127.158
G1 X186.025Y127.275
G1 X185.925Y127.384
G1 X185.78Y127.483
G1 X185.595Y127.57
G1 X185.375Y127.643
G1 X185.124Y127.7
G1 X184.849Y127.74
G1 X184.552Y127.759
; Layer C25 Pass 2 of 3
G1 X184.849Y127.74
G1 X185.124Y127.7
G1 X185.375Y127.643
G1 X185.595Y127.57
G1 X185.78Y127.483
G1 X185.925Y127.384
G1 X186.025Y127.275
G1 X186.075Y127.158
G1 X186.068Y127.025
G1 X185.996Y126.9
G1 X185.865Y126.785
G1 X185.682Y126.682
G1 X185.454Y126.595
G1 X185.185Y126.527
G1 X184.882Y126.479
G1 X184.552Y126.456
; Layer C25 Pass 3 of 3
G1 X184.882Y126.479
G1 X185.185Y126.527
G1 X185.454Y126.595
G1 X185.682Y126.682
G1 X185.865Y126.785
G1 X185.996Y126.9
G1 X186.068Y127.025
G1 X186.075Y127.158
G1 X186.025Y127.275
G1 X185.925Y127.384
G1 X185.78Y127.483
G1 X185.595Y127.57
G1 X185.375Y127.643
G1 X185.124Y127.7
G1 X184.849Y127.74
G1 X184.552Y127.759
G0 X184.552Y127.759
; Layer C25 Pass 1 of 3
G1 X184.238Y127.77
G1 X183.948Y127.733
G1 X183.714Y127.657
G1 X183.568Y127.546
G1 X183.538Y127.484
G1 X183.541Y127.422
G1 X183.573Y127.363
G1 X183.633Y127.308
G1 X183.828Y127.216
G1 X184.107Y127.158
G1 X184.329Y127.145
G1 X184.552Y127.158
; Layer C25 Pass 2 of 3
G1 X184.329Y127.145
G1 X184.107Y127.158
G1 X183.828Y127.216
G1 X183.633Y127.308
G1 X183.573Y127.363
G1 X183.541Y127.422
G1 X183.538Y127.484
G1 X183.568Y127.546
G1 X183.714Y127.657
G1 X183.948Y127.733
G1 X184.238Y127.77
G1 X184.552Y127.759
; Layer C25 Pass 3 of 3
G1 X184.238Y127.77
G1 X183.948Y127.733
G1 X183.714Y127.657
G1 X183.568Y127.546
G1 X183.538Y127.484
G1 X183.541Y127.422
G1 X183.573Y127.363
G1 X183.633Y127.308
G1 X183.828Y127.216
G1 X184.107Y127.158
G1 X184.329Y127.145
G1 X184.552Y127.158
G0 X184.552Y127.158
; Layer C25 Pass 1 of 3
G1 X184.95Y127.221
G1 X185.297Y127.312
G1 X185.587Y127.426
G1 X185.815Y127.558
G1 X185.976Y127.706
G1 X186.063Y127.863
G1 X186.07Y128.028
G1 X185.992Y128.194
G1 X185.9Y128.294
G1 X185.779Y128.387
G1 X185.63Y128.473
G1 X185.456Y128.551
G1 X185.042Y128.678
G1 X184.552Y128.762
; Layer C25 Pass 2 of 3
G1 X185.042Y128.678
G1 X185.456Y128.551
G1 X185.63Y128.473
G1 X185.779Y128.387
G1 X185.9Y128.294
G1 X185.992Y128.194
G1 X186.07Y128.028
G1 X186.063Y127.863
G1 X185.976Y127.706
G1 X185.815Y127.558
G1 X185.587Y127.426
G1 X185.297Y127.312
G1 X184.95Y127.221
G1 X184.552Y127.158
; Layer C25 Pass 3 of 3
G1 X184.95Y127.221
G1 X185.297Y127.312
G1 X185.587Y127.426
G1 X185.815Y127.558
G1 X185.976Y127.706
G1 X186.063Y127.863
G1 X186.07Y128.028
G1 X185.992Y128.194
G1 X185.9Y128.294
G1 X185.779Y128.387
G1 X185.63Y128.473
G1 X185.456Y128.551
G1 X185.042Y128.678
G1 X184.552Y128.762
G0 X184.552Y128.762
; Layer C25 Pass 1 of 3
G1 X184.238Y128.773
G1 X183.948Y128.736
G1 X183.714Y128.659
G1 X183.568Y128.549
G1 X183.538Y128.487
G1 X183.541Y128.425
G1 X183.573Y128.366
G1 X183.633Y128.311
G1 X183.828Y128.218
G1 X184.107Y128.161
G1 X184.329Y128.148
G1 X184.552Y128.161
; Layer C25 Pass 2 of 3
G1 X184.329Y128.148
G1 X184.107Y128.161
G1 X183.828Y128.218
G1 X183.633Y128.311
G1 X183.573Y128.366
G1 X183.541Y128.425
G1 X183.538Y128.487
G1 X183.568Y128.549
G1 X183.714Y128.659
G1 X183.948Y128.736
G1 X184.238Y128.773
G1 X184.552Y128.762
; Layer C25 Pass 3 of 3
G1 X184.238Y128.773
G1 X183.948Y128.736
G1 X183.714Y128.659
G1 X183.568Y128.549
G1 X183.538Y128.487
G1 X183.541Y128.425
G1 X183.573Y128.366
G1 X183.633Y128.311
G1 X183.828Y128.218
G1 X184.107Y128.161
G1 X184.329Y128.148
G1 X184.552Y128.161
G0 X184.552Y128.161
; Layer C25 Pass 1 of 3
G1 X184.95Y128.222
G1 X185.298Y128.311
G1 X185.591Y128.424
G1 X185.822Y128.555
G1 X185.985Y128.701
G1 X186.075Y128.858
G1 X186.087Y129.022
G1 X186.013Y129.188
G1 X185.922Y129.29
G1 X185.8Y129.385
G1 X185.65Y129.473
G1 X185.474Y129.552
G1 X185.051Y129.681
G1 X184.552Y129.765
; Layer C25 Pass 2 of 3
G1 X185.051Y129.681
G1 X185.474Y129.552
G1 X185.65Y129.473
G1 X185.8Y129.385
G1 X185.922Y129.29
G1 X186.013Y129.188
G1 X186.087Y129.022
G1 X186.075Y128.858
G1 X185.985Y128.701
G1 X185.822Y128.555
G1 X185.591Y128.424
G1 X185.298Y128.311
G1 X184.95Y128.222
G1 X184.552Y128.161
; Layer C25 Pass 3 of 3
G1 X184.95Y128.222
G1 X185.298Y128.311
G1 X185.591Y128.424
G1 X185.822Y128.555
G1 X185.985Y128.701
G1 X186.075Y128.858
G1 X186.087Y129.022
G1 X186.013Y129.188
G1 X185.922Y129.29
G1 X185.8Y129.385
G1 X185.65Y129.473
G1 X185.474Y129.552
G1 X185.051Y129.681
G1 X184.552Y129.765
G0 X184.552Y129.765
; Layer C25 Pass 1 of 3
G1 X184.238Y129.776
G1 X183.948Y129.739
G1 X183.714Y129.662
G1 X183.568Y129.552
G1 X183.538Y129.49
G1 X183.541Y129.428
G1 X183.573Y129.369
G1 X183.633Y129.314
G1 X183.828Y129.221
G1 X184.107Y129.163
G1 X184.329Y129.151
G1 X184.552Y129.163
; Layer C25 Pass 2 of 3
G1 X184.329Y129.151
G1 X184.107Y129.163
G1 X183.828Y129.221
G1 X183.633Y129.314
G1 X183.573Y129.369
G1 X183.541Y129.428
G1 X183.538Y129.49
G1 X183.568Y129.552
G1 X183.714Y129.662
G1 X183.948Y129.739
G1 X184.238Y129.776
G1 X184.552Y129.765
; Layer C25 Pass 3 of 3
G1 X184.238Y129.776
G1 X183.948Y129.739
G1 X183.714Y129.662
G1 X183.568Y129.552
G1 X183.538Y129.49
G1 X183.541Y129.428
G1 X183.573Y129.369
G1 X183.633Y129.314
G1 X183.828Y129.221
G1 X184.107Y129.163
G1 X184.329Y129.151
G1 X184.552Y129.163
G0 X184.554Y129.163
; Layer C25 Pass 1 of 3
G1 X184.884Y129.187
G1 X185.186Y129.234
G1 X185.455Y129.303
G1 X185.684Y129.39
G1 X185.867Y129.492
G1 X185.997Y129.608
G1 X186.069Y129.733
G1 X186.077Y129.865
G1 X186.027Y129.982
G1 X185.927Y130.092
G1 X185.782Y130.19
G1 X185.597Y130.277
G1 X185.376Y130.351
G1 X185.126Y130.408
G1 X184.85Y130.447
G1 X184.554Y130.467
; Layer C25 Pass 2 of 3
G1 X184.85Y130.447
G1 X185.126Y130.408
G1 X185.376Y130.351
G1 X185.597Y130.277
G1 X185.782Y130.19
G1 X185.927Y130.092
G1 X186.027Y129.982
G1 X186.077Y129.865
G1 X186.069Y129.733
G1 X185.997Y129.608
G1 X185.867Y129.492
G1 X185.684Y129.39
G1 X185.455Y129.303
G1 X185.186Y129.234
G1 X184.884Y129.187
G1 X184.554Y129.163
; Layer C25 Pass 3 of 3
G1 X184.884Y129.187
G1 X185.186Y129.234
G1 X185.455Y129.303
G1 X185.684Y129.39
G1 X185.867Y129.492
G1 X185.997Y129.608
G1 X186.069Y129.733
G1 X186.077Y129.865
G1 X186.027Y129.982
G1 X185.927Y130.092
G1 X185.782Y130.19
G1 X185.597Y130.277
G1 X185.376Y130.351
G1 X185.126Y130.408
G1 X184.85Y130.447
G1 X184.554Y130.467
G0 X184.552Y130.467
; Layer C25 Pass 1 of 3
G1 X182.012
; Layer C25 Pass 2 of 3
G1 X184.552
; Layer C25 Pass 3 of 3
G1 X182.012
G0 X181.989Y130.46
; Layer C25 Pass 1 of 3
G1 Y134.32
; Layer C25 Pass 2 of 3
G1 Y130.46
; Layer C25 Pass 3 of 3
G1 Y134.32
G0 X179.992Y133.977
; Layer C25 Pass 1 of 3
G1 Y132.519
; Layer C25 Pass 2 of 3
G1 Y133.977
; Layer C25 Pass 3 of 3
G1 Y132.519
G0 X179.947Y132.483
; Layer C25 Pass 1 of 3
G1 X188.005
; Layer C25 Pass 2 of 3
G1 X179.947
; Layer C25 Pass 3 of 3
G1 X188.005
G0 X188Y132.479
; Layer C25 Pass 1 of 3
G1 Y130.17
; Layer C25 Pass 2 of 3
G1 Y132.479
; Layer C25 Pass 3 of 3
G1 Y130.17
G0 X188Y130.17
; Layer C25 Pass 1 of 3
G1 X188.762Y130.698
; Layer C25 Pass 2 of 3
G1 X188Y130.17
; Layer C25 Pass 3 of 3
G1 X188.762Y130.698
G0 X188.767Y130.669
; Layer C25 Pass 1 of 3
G1 X188.005Y130.141
; Layer C25 Pass 2 of 3
G1 X188.767Y130.669
; Layer C25 Pass 3 of 3
G1 X188.005Y130.141
G0 X188.005Y130.141
; Layer C25 Pass 1 of 3
G1 X187.243Y130.669
; Layer C25 Pass 2 of 3
G1 X188.005Y130.141
; Layer C25 Pass 3 of 3
G1 X187.243Y130.669
G0 X187.238Y130.698
; Layer C25 Pass 1 of 3
G1 X188Y130.17
; Layer C25 Pass 2 of 3
G1 X187.238Y130.698
; Layer C25 Pass 3 of 3
G1 X188Y130.17
G0 X190.943Y130.449
; Layer C25 Pass 1 of 3
G1 X192.145
G1 X192.762Y130.456
G1 X192.99Y130.46
G1 X193.022Y130.463
G1 Y133.948
; Layer C25 Pass 2 of 3
G1 Y130.463
G1 X192.99Y130.46
G1 X192.762Y130.456
G1 X192.145Y130.451
G1 X190.943
; Layer C25 Pass 3 of 3
G1 X192.145
G1 X192.762Y130.456
G1 X192.99Y130.46
G1 X193.022Y130.463
G1 Y133.948
G0 X191Y130.517
; Layer C25 Pass 1 of 3
G1 Y126.476
; Layer C25 Pass 2 of 3
G1 Y130.517
; Layer C25 Pass 3 of 3
G1 Y126.476
G0 X190.961Y126.436
; Layer C25 Pass 1 of 3
G1 X192.132
G1 X192.733Y126.429
G1 X192.955Y126.424
G1 X192.987
G1 Y122.936
; Layer C25 Pass 2 of 3
G1 Y126.422
G1 X192.955
G1 X192.733Y126.429
G1 X192.132Y126.434
G1 X190.961
; Layer C25 Pass 3 of 3
G1 X192.132
G1 X192.733Y126.429
G1 X192.955Y126.424
G1 X192.987
G1 Y122.936
G0 X187.992Y124.48
; Layer C25 Pass 1 of 3
G1 Y125.54
; Layer C25 Pass 2 of 3
G1 Y124.48
; Layer C25 Pass 3 of 3
G1 Y125.54
G0 X187.992Y125.113
; Layer C25 Pass 1 of 3
G1 Y126.874
; Layer C25 Pass 2 of 3
G1 Y125.113
; Layer C25 Pass 3 of 3
G1 Y126.874
G0 X187.992Y126.874
; Layer C25 Pass 1 of 3
G1 X188.754Y126.346
; Layer C25 Pass 2 of 3
G1 X187.992Y126.874
; Layer C25 Pass 3 of 3
G1 X188.754Y126.346
G0 X188.756Y126.353
; Layer C25 Pass 1 of 3
G1 X187.994Y126.882
; Layer C25 Pass 2 of 3
G1 X188.756Y126.353
; Layer C25 Pass 3 of 3
G1 X187.994Y126.882
G0 X187.99Y126.883
; Layer C25 Pass 1 of 3
G1 X187.228Y126.354
; Layer C25 Pass 2 of 3
G1 X187.99Y126.883
; Layer C25 Pass 3 of 3
G1 X187.228Y126.354
G0 X187.23Y126.346
; Layer C25 Pass 1 of 3
G1 X187.992Y126.874
; Layer C25 Pass 2 of 3
G1 X187.23Y126.346
; Layer C25 Pass 3 of 3
G1 X187.992Y126.874
G0 X188.626Y127.238
; Layer C25 Pass 1 of 3
G1 X190.404Y128.472
; Layer C25 Pass 2 of 3
G1 X188.626Y127.238
; Layer C25 Pass 3 of 3
G1 X190.404Y128.472
G0 X190.404Y128.472
; Layer C25 Pass 1 of 3
G1 X191.014
; Layer C25 Pass 2 of 3
G1 X190.404
; Layer C25 Pass 3 of 3
G1 X191.014
G0 X190.391Y128.496
; Layer C25 Pass 1 of 3
G1 X188.613Y127.263
; Layer C25 Pass 2 of 3
G1 X190.391Y128.496
; Layer C25 Pass 3 of 3
G1 X188.613Y127.263
G0 X187.989Y124.481
; Layer C25 Pass 1 of 3
G1 X179.985
; Layer C25 Pass 2 of 3
G1 X187.989
; Layer C25 Pass 3 of 3
G1 X179.985
G0 X179.992Y124.503
; Layer C25 Pass 1 of 3
G1 Y122.937
; Layer C25 Pass 2 of 3
G1 Y124.503
; Layer C25 Pass 3 of 3
G1 Y122.937
G0 X167.987Y122.936
; Layer C25 Pass 1 of 3
G1 Y126.422
G1 X167.955
G1 X167.733Y126.429
G1 X167.132Y126.434
G1 X165.961
; Layer C25 Pass 2 of 3
G1 X167.132
G1 X167.733Y126.429
G1 X167.955Y126.424
G1 X167.987
G1 Y122.936
; Layer C25 Pass 3 of 3
G1 Y126.422
G1 X167.955
G1 X167.733Y126.429
G1 X167.132Y126.434
G1 X165.961
G0 X166Y126.476
; Layer C25 Pass 1 of 3
G1 Y130.517
; Layer C25 Pass 2 of 3
G1 Y126.476
; Layer C25 Pass 3 of 3
G1 Y130.517
G0 X165.943Y130.449
; Layer C25 Pass 1 of 3
G1 X167.145
G1 X167.762Y130.456
G1 X167.99Y130.46
G1 X168.022Y130.463
G1 Y133.948
; Layer C25 Pass 2 of 3
G1 Y130.463
G1 X167.99Y130.46
G1 X167.762Y130.456
G1 X167.145Y130.451
G1 X165.943
; Layer C25 Pass 3 of 3
G1 X167.145
G1 X167.762Y130.456
G1 X167.99Y130.46
G1 X168.022Y130.463
G1 Y133.948
G0 X163.005Y132.483
; Layer C25 Pass 1 of 3
G1 X154.947
; Layer C25 Pass 2 of 3
G1 X163.005
; Layer C25 Pass 3 of 3
G1 X154.947
G0 X154.992Y132.519
; Layer C25 Pass 1 of 3
G1 Y133.977
; Layer C25 Pass 2 of 3
G1 Y132.519
; Layer C25 Pass 3 of 3
G1 Y133.977
G0 X156.989Y134.32
; Layer C25 Pass 1 of 3
G1 Y130.46
; Layer C25 Pass 2 of 3
G1 Y134.32
; Layer C25 Pass 3 of 3
G1 Y130.46
G0 X157.012Y130.467
; Layer C25 Pass 1 of 3
G1 X159.552
; Layer C25 Pass 2 of 3
G1 X157.012
; Layer C25 Pass 3 of 3
G1 X159.552
G0 X159.554Y130.467
; Layer C25 Pass 1 of 3
G1 X159.85Y130.447
G1 X160.126Y130.408
G1 X160.376Y130.351
G1 X160.597Y130.277
G1 X160.782Y130.19
G1 X160.927Y130.092
G1 X161.027Y129.982
G1 X161.077Y129.865
G1 X161.069Y129.733
G1 X160.997Y129.608
G1 X160.867Y129.492
G1 X160.684Y129.39
G1 X160.455Y129.303
G1 X160.186Y129.234
G1 X159.884Y129.187
G1 X159.554Y129.163
; Layer C25 Pass 2 of 3
G1 X159.884Y129.187
G1 X160.186Y129.234
G1 X160.455Y129.303
G1 X160.684Y129.39
G1 X160.867Y129.492
G1 X160.997Y129.608
G1 X161.069Y129.733
G1 X161.077Y129.865
G1 X161.027Y129.982
G1 X160.927Y130.092
G1 X160.782Y130.19
G1 X160.597Y130.277
G1 X160.376Y130.351
G1 X160.126Y130.408
G1 X159.85Y130.447
G1 X159.554Y130.467
; Layer C25 Pass 3 of 3
G1 X159.85Y130.447
G1 X160.126Y130.408
G1 X160.376Y130.351
G1 X160.597Y130.277
G1 X160.782Y130.19
G1 X160.927Y130.092
G1 X161.027Y129.982
G1 X161.077Y129.865
G1 X161.069Y129.733
G1 X160.997Y129.608
G1 X160.867Y129.492
G1 X160.684Y129.39
G1 X160.455Y129.303
G1 X160.186Y129.234
G1 X159.884Y129.187
G1 X159.554Y129.163
G0 X159.552Y129.163
; Layer C25 Pass 1 of 3
G1 X159.329Y129.151
G1 X159.107Y129.163
G1 X158.828Y129.221
G1 X158.633Y129.314
G1 X158.573Y129.369
G1 X158.541Y129.428
G1 X158.538Y129.49
G1 X158.568Y129.552
G1 X158.714Y129.662
G1 X158.948Y129.739
G1 X159.238Y129.776
G1 X159.552Y129.765
; Layer C25 Pass 2 of 3
G1 X159.238Y129.776
G1 X158.948Y129.739
G1 X158.714Y129.662
G1 X158.568Y129.552
G1 X158.538Y129.49
G1 X158.541Y129.428
G1 X158.573Y129.369
G1 X158.633Y129.314
G1 X158.828Y129.221
G1 X159.107Y129.163
G1 X159.329Y129.151
G1 X159.552Y129.163
; Layer C25 Pass 3 of 3
G1 X159.329Y129.151
G1 X159.107Y129.163
G1 X158.828Y129.221
G1 X158.633Y129.314
G1 X158.573Y129.369
G1 X158.541Y129.428
G1 X158.538Y129.49
G1 X158.568Y129.552
G1 X158.714Y129.662
G1 X158.948Y129.739
G1 X159.238Y129.776
G1 X159.552Y129.765
G0 X159.552Y129.765
; Layer C25 Pass 1 of 3
G1 X160.051Y129.681
G1 X160.474Y129.552
G1 X160.65Y129.473
G1 X160.8Y129.385
G1 X160.922Y129.29
G1 X161.013Y129.188
G1 X161.087Y129.022
G1 X161.075Y128.858
G1 X160.985Y128.701
G1 X160.822Y128.555
G1 X160.591Y128.424
G1 X160.298Y128.311
G1 X159.95Y128.222
G1 X159.552Y128.161
; Layer C25 Pass 2 of 3
G1 X159.95Y128.222
G1 X160.298Y128.311
G1 X160.591Y128.424
G1 X160.822Y128.555
G1 X160.985Y128.701
G1 X161.075Y128.858
G1 X161.087Y129.022
G1 X161.013Y129.188
G1 X160.922Y129.29
G1 X160.8Y129.385
G1 X160.65Y129.473
G1 X160.474Y129.552
G1 X160.051Y129.681
G1 X159.552Y129.765
; Layer C25 Pass 3 of 3
G1 X160.051Y129.681
G1 X160.474Y129.552
G1 X160.65Y129.473
G1 X160.8Y129.385
G1 X160.922Y129.29
G1 X161.013Y129.188
G1 X161.087Y129.022
G1 X161.075Y128.858
G1 X160.985Y128.701
G1 X160.822Y128.555
G1 X160.591Y128.424
G1 X160.298Y128.311
G1 X159.95Y128.222
G1 X159.552Y128.161
G0 X159.552Y128.161
; Layer C25 Pass 1 of 3
G1 X159.329Y128.148
G1 X159.107Y128.161
G1 X158.828Y128.218
G1 X158.633Y128.311
G1 X158.573Y128.366
G1 X158.541Y128.425
G1 X158.538Y128.487
G1 X158.568Y128.549
G1 X158.714Y128.659
G1 X158.948Y128.736
G1 X159.238Y128.773
G1 X159.552Y128.762
; Layer C25 Pass 2 of 3
G1 X159.238Y128.773
G1 X158.948Y128.736
G1 X158.714Y128.659
G1 X158.568Y128.549
G1 X158.538Y128.487
G1 X158.541Y128.425
G1 X158.573Y128.366
G1 X158.633Y128.311
G1 X158.828Y128.218
G1 X159.107Y128.161
G1 X159.329Y128.148
G1 X159.552Y128.161
; Layer C25 Pass 3 of 3
G1 X159.329Y128.148
G1 X159.107Y128.161
G1 X158.828Y128.218
G1 X158.633Y128.311
G1 X158.573Y128.366
G1 X158.541Y128.425
G1 X158.538Y128.487
G1 X158.568Y128.549
G1 X158.714Y128.659
G1 X158.948Y128.736
G1 X159.238Y128.773
G1 X159.552Y128.762
G0 X159.552Y128.762
; Layer C25 Pass 1 of 3
G1 X160.042Y128.678
G1 X160.456Y128.551
G1 X160.63Y128.473
G1 X160.779Y128.387
G1 X160.9Y128.294
G1 X160.992Y128.194
G1 X161.07Y128.028
G1 X161.063Y127.863
G1 X160.976Y127.706
G1 X160.815Y127.558
G1 X160.587Y127.426
G1 X160.297Y127.312
G1 X159.95Y127.221
G1 X159.552Y127.158
; Layer C25 Pass 2 of 3
G1 X159.95Y127.221
G1 X160.297Y127.312
G1 X160.587Y127.426
G1 X160.815Y127.558
G1 X160.976Y127.706
G1 X161.063Y127.863
G1 X161.07Y128.028
G1 X160.992Y128.194
G1 X160.9Y128.294
G1 X160.779Y128.387
G1 X160.63Y128.473
G1 X160.456Y128.551
G1 X160.042Y128.678
G1 X159.552Y128.762
; Layer C25 Pass 3 of 3
G1 X160.042Y128.678
G1 X160.456Y128.551
G1 X160.63Y128.473
G1 X160.779Y128.387
G1 X160.9Y128.294
G1 X160.992Y128.194
G1 X161.07Y128.028
G1 X161.063Y127.863
G1 X160.976Y127.706
G1 X160.815Y127.558
G1 X160.587Y127.426
G1 X160.297Y127.312
G1 X159.95Y127.221
G1 X159.552Y127.158
G0 X159.552Y127.158
; Layer C25 Pass 1 of 3
G1 X159.329Y127.145
G1 X159.107Y127.158
G1 X158.828Y127.216
G1 X158.633Y127.308
G1 X158.573Y127.363
G1 X158.541Y127.422
G1 X158.538Y127.484
G1 X158.568Y127.546
G1 X158.714Y127.657
G1 X158.948Y127.733
G1 X159.238Y127.77
G1 X159.552Y127.759
; Layer C25 Pass 2 of 3
G1 X159.238Y127.77
G1 X158.948Y127.733
G1 X158.714Y127.657
G1 X158.568Y127.546
G1 X158.538Y127.484
G1 X158.541Y127.422
G1 X158.573Y127.363
G1 X158.633Y127.308
G1 X158.828Y127.216
G1 X159.107Y127.158
G1 X159.329Y127.145
G1 X159.552Y127.158
; Layer C25 Pass 3 of 3
G1 X159.329Y127.145
G1 X159.107Y127.158
G1 X158.828Y127.216
G1 X158.633Y127.308
G1 X158.573Y127.363
G1 X158.541Y127.422
G1 X158.538Y127.484
G1 X158.568Y127.546
G1 X158.714Y127.657
G1 X158.948Y127.733
G1 X159.238Y127.77
G1 X159.552Y127.759
G0 X159.552Y127.759
; Layer C25 Pass 1 of 3
G1 X159.849Y127.74
G1 X160.124Y127.7
G1 X160.375Y127.643
G1 X160.595Y127.57
G1 X160.78Y127.483
G1 X160.925Y127.384
G1 X161.025Y127.275
G1 X161.075Y127.158
G1 X161.068Y127.025
G1 X160.996Y126.9
G1 X160.865Y126.785
G1 X160.682Y126.682
G1 X160.454Y126.595
G1 X160.185Y126.527
G1 X159.882Y126.479
G1 X159.552Y126.456
; Layer C25 Pass 2 of 3
G1 X159.882Y126.479
G1 X160.185Y126.527
G1 X160.454Y126.595
G1 X160.682Y126.682
G1 X160.865Y126.785
G1 X160.996Y126.9
G1 X161.068Y127.025
G1 X161.075Y127.158
G1 X161.025Y127.275
G1 X160.925Y127.384
G1 X160.78Y127.483
G1 X160.595Y127.57
G1 X160.375Y127.643
G1 X160.124Y127.7
G1 X159.849Y127.74
G1 X159.552Y127.759
; Layer C25 Pass 3 of 3
G1 X159.849Y127.74
G1 X160.124Y127.7
G1 X160.375Y127.643
G1 X160.595Y127.57
G1 X160.78Y127.483
G1 X160.925Y127.384
G1 X161.025Y127.275
G1 X161.075Y127.158
G1 X161.068Y127.025
G1 X160.996Y126.9
G1 X160.865Y126.785
G1 X160.682Y126.682
G1 X160.454Y126.595
G1 X160.185Y126.527
G1 X159.882Y126.479
G1 X159.552Y126.456
G0 X159.552Y126.456
; Layer C25 Pass 1 of 3
G1 X157.012
; Layer C25 Pass 2 of 3
G1 X159.552
; Layer C25 Pass 3 of 3
G1 X157.012
G0 X156.97Y126.478
; Layer C25 Pass 1 of 3
G1 Y122.652
; Layer C25 Pass 2 of 3
G1 Y126.478
; Layer C25 Pass 3 of 3
G1 Y122.652
G0 X154.992Y122.937
; Layer C25 Pass 1 of 3
G1 Y124.503
; Layer C25 Pass 2 of 3
G1 Y122.937
; Layer C25 Pass 3 of 3
G1 Y124.503
G0 X154.985Y124.481
; Layer C25 Pass 1 of 3
G1 X162.989
; Layer C25 Pass 2 of 3
G1 X154.985
; Layer C25 Pass 3 of 3
G1 X162.989
G0 X162.992Y124.48
; Layer C25 Pass 1 of 3
G1 Y125.54
; Layer C25 Pass 2 of 3
G1 Y124.48
; Layer C25 Pass 3 of 3
G1 Y125.54
G0 X162.992Y125.113
; Layer C25 Pass 1 of 3
G1 Y126.874
; Layer C25 Pass 2 of 3
G1 Y125.113
; Layer C25 Pass 3 of 3
G1 Y126.874
G0 X162.992Y126.874
; Layer C25 Pass 1 of 3
G1 X163.754Y126.346
; Layer C25 Pass 2 of 3
G1 X162.992Y126.874
; Layer C25 Pass 3 of 3
G1 X163.754Y126.346
G0 X163.756Y126.353
; Layer C25 Pass 1 of 3
G1 X162.994Y126.882
; Layer C25 Pass 2 of 3
G1 X163.756Y126.353
; Layer C25 Pass 3 of 3
G1 X162.994Y126.882
G0 X162.99Y126.883
; Layer C25 Pass 1 of 3
G1 X162.228Y126.354
; Layer C25 Pass 2 of 3
G1 X162.99Y126.883
; Layer C25 Pass 3 of 3
G1 X162.228Y126.354
G0 X162.23Y126.346
; Layer C25 Pass 1 of 3
G1 X162.992Y126.874
; Layer C25 Pass 2 of 3
G1 X162.23Y126.346
; Layer C25 Pass 3 of 3
G1 X162.992Y126.874
G0 X163.626Y127.238
; Layer C25 Pass 1 of 3
G1 X165.404Y128.472
; Layer C25 Pass 2 of 3
G1 X163.626Y127.238
; Layer C25 Pass 3 of 3
G1 X165.404Y128.472
G0 X165.404Y128.472
; Layer C25 Pass 1 of 3
G1 X166.014
; Layer C25 Pass 2 of 3
G1 X165.404
; Layer C25 Pass 3 of 3
G1 X166.014
G0 X165.391Y128.496
; Layer C25 Pass 1 of 3
G1 X163.613Y127.263
; Layer C25 Pass 2 of 3
G1 X165.391Y128.496
; Layer C25 Pass 3 of 3
G1 X163.613Y127.263
G0 X163.005Y130.141
; Layer C25 Pass 1 of 3
G1 X162.243Y130.669
; Layer C25 Pass 2 of 3
G1 X163.005Y130.141
; Layer C25 Pass 3 of 3
G1 X162.243Y130.669
G0 X162.238Y130.698
; Layer C25 Pass 1 of 3
G1 X163Y130.17
; Layer C25 Pass 2 of 3
G1 X162.238Y130.698
; Layer C25 Pass 3 of 3
G1 X163Y130.17
G0 X163Y130.17
; Layer C25 Pass 1 of 3
G1 Y132.479
; Layer C25 Pass 2 of 3
G1 Y130.17
; Layer C25 Pass 3 of 3
G1 Y132.479
G0 X163.762Y130.698
; Layer C25 Pass 1 of 3
G1 X163Y130.17
; Layer C25 Pass 2 of 3
G1 X163.762Y130.698
; Layer C25 Pass 3 of 3
G1 X163Y130.17
G0 X163.005Y130.141
; Layer C25 Pass 1 of 3
G1 X163.767Y130.669
; Layer C25 Pass 2 of 3
G1 X163.005Y130.141
; Layer C25 Pass 3 of 3
G1 X163.767Y130.669
G0 X128.454Y133.948
; Layer C25 Pass 1 of 3
G1 Y130.463
G1 X128.421Y130.46
G1 X128.194Y130.456
G1 X127.577Y130.451
G1 X126.375
; Layer C25 Pass 2 of 3
G1 X127.577
G1 X128.194Y130.456
G1 X128.421Y130.46
G1 X128.454Y130.463
G1 Y133.948
; Layer C25 Pass 3 of 3
G1 Y130.463
G1 X128.421Y130.46
G1 X128.194Y130.456
G1 X127.577Y130.451
G1 X126.375
G0 X126.431Y130.517
; Layer C25 Pass 1 of 3
G1 Y126.476
; Layer C25 Pass 2 of 3
G1 Y130.517
; Layer C25 Pass 3 of 3
G1 Y126.476
G0 X126.393Y126.436
; Layer C25 Pass 1 of 3
G1 X127.564
G1 X128.165Y126.429
G1 X128.386Y126.424
G1 X128.418
G1 Y122.936
; Layer C25 Pass 2 of 3
G1 Y126.422
G1 X128.386
G1 X128.165Y126.429
G1 X127.564Y126.434
G1 X126.393
; Layer C25 Pass 3 of 3
G1 X127.564
G1 X128.165Y126.429
G1 X128.386Y126.424
G1 X128.418
G1 Y122.936
G0 X123.424Y124.48
; Layer C25 Pass 1 of 3
G1 Y125.54
; Layer C25 Pass 2 of 3
G1 Y124.48
; Layer C25 Pass 3 of 3
G1 Y125.54
G0 X123.424Y125.113
; Layer C25 Pass 1 of 3
G1 Y126.874
; Layer C25 Pass 2 of 3
G1 Y125.113
; Layer C25 Pass 3 of 3
G1 Y126.874
G0 X123.424Y126.874
; Layer C25 Pass 1 of 3
G1 X124.186Y126.346
; Layer C25 Pass 2 of 3
G1 X123.424Y126.874
; Layer C25 Pass 3 of 3
G1 X124.186Y126.346
G0 X124.187Y126.353
; Layer C25 Pass 1 of 3
G1 X123.425Y126.882
; Layer C25 Pass 2 of 3
G1 X124.187Y126.353
; Layer C25 Pass 3 of 3
G1 X123.425Y126.882
G0 X123.421Y126.883
; Layer C25 Pass 1 of 3
G1 X122.659Y126.354
; Layer C25 Pass 2 of 3
G1 X123.421Y126.883
; Layer C25 Pass 3 of 3
G1 X122.659Y126.354
G0 X122.662Y126.346
; Layer C25 Pass 1 of 3
G1 X123.424Y126.874
; Layer C25 Pass 2 of 3
G1 X122.662Y126.346
; Layer C25 Pass 3 of 3
G1 X123.424Y126.874
G0 X124.057Y127.238
; Layer C25 Pass 1 of 3
G1 X125.835Y128.472
; Layer C25 Pass 2 of 3
G1 X124.057Y127.238
; Layer C25 Pass 3 of 3
G1 X125.835Y128.472
G0 X125.835Y128.472
; Layer C25 Pass 1 of 3
G1 X126.445
; Layer C25 Pass 2 of 3
G1 X125.835
; Layer C25 Pass 3 of 3
G1 X126.445
G0 X125.822Y128.496
; Layer C25 Pass 1 of 3
G1 X124.044Y127.263
; Layer C25 Pass 2 of 3
G1 X125.822Y128.496
; Layer C25 Pass 3 of 3
G1 X124.044Y127.263
G0 X119.984Y127.158
; Layer C25 Pass 1 of 3
G1 X120.381Y127.221
G1 X120.728Y127.312
G1 X121.019Y127.426
G1 X121.247Y127.558
G1 X121.407Y127.706
G1 X121.494Y127.863
G1 X121.501Y128.028
G1 X121.423Y128.194
G1 X121.331Y128.294
G1 X121.21Y128.387
G1 X121.062Y128.473
G1 X120.888Y128.551
G1 X120.473Y128.678
G1 X119.984Y128.762
; Layer C25 Pass 2 of 3
G1 X120.473Y128.678
G1 X120.888Y128.551
G1 X121.062Y128.473
G1 X121.21Y128.387
G1 X121.331Y128.294
G1 X121.423Y128.194
G1 X121.501Y128.028
G1 X121.494Y127.863
G1 X121.407Y127.706
G1 X121.247Y127.558
G1 X121.019Y127.426
G1 X120.728Y127.312
G1 X120.381Y127.221
G1 X119.984Y127.158
; Layer C25 Pass 3 of 3
G1 X120.381Y127.221
G1 X120.728Y127.312
G1 X121.019Y127.426
G1 X121.247Y127.558
G1 X121.407Y127.706
G1 X121.494Y127.863
G1 X121.501Y128.028
G1 X121.423Y128.194
G1 X121.331Y128.294
G1 X121.21Y128.387
G1 X121.062Y128.473
G1 X120.888Y128.551
G1 X120.473Y128.678
G1 X119.984Y128.762
G0 X119.984Y128.762
; Layer C25 Pass 1 of 3
G1 X119.67Y128.773
G1 X119.38Y128.736
G1 X119.146Y128.659
G1 X118.999Y128.549
G1 X118.97Y128.487
G1 Y128.425
G1 X119.005Y128.366
G1 X119.065Y128.311
G1 X119.259Y128.218
G1 X119.538Y128.161
G1 X119.761Y128.148
G1 X119.984Y128.161
; Layer C25 Pass 2 of 3
G1 X119.761Y128.148
G1 X119.538Y128.161
G1 X119.259Y128.218
G1 X119.065Y128.311
G1 X119.005Y128.366
G1 X118.972Y128.425
G1 Y128.487
G1 X118.999Y128.549
G1 X119.146Y128.659
G1 X119.38Y128.736
G1 X119.67Y128.773
G1 X119.984Y128.762
; Layer C25 Pass 3 of 3
G1 X119.67Y128.773
G1 X119.38Y128.736
G1 X119.146Y128.659
G1 X118.999Y128.549
G1 X118.97Y128.487
G1 Y128.425
G1 X119.005Y128.366
G1 X119.065Y128.311
G1 X119.259Y128.218
G1 X119.538Y128.161
G1 X119.761Y128.148
G1 X119.984Y128.161
G0 X119.984Y128.161
; Layer C25 Pass 1 of 3
G1 X120.382Y128.222
G1 X120.73Y128.311
G1 X121.022Y128.424
G1 X121.253Y128.555
G1 X121.417Y128.701
G1 X121.507Y128.858
G1 X121.518Y129.022
G1 X121.444Y129.188
G1 X121.353Y129.29
G1 X121.232Y129.385
G1 X121.081Y129.473
G1 X120.905Y129.552
G1 X120.483Y129.681
G1 X119.984Y129.765
; Layer C25 Pass 2 of 3
G1 X120.483Y129.681
G1 X120.905Y129.552
G1 X121.081Y129.473
G1 X121.232Y129.385
G1 X121.353Y129.29
G1 X121.444Y129.188
G1 X121.518Y129.022
G1 X121.507Y128.858
G1 X121.417Y128.701
G1 X121.253Y128.555
G1 X121.022Y128.424
G1 X120.73Y128.311
G1 X120.382Y128.222
G1 X119.984Y128.161
; Layer C25 Pass 3 of 3
G1 X120.382Y128.222
G1 X120.73Y128.311
G1 X121.022Y128.424
G1 X121.253Y128.555
G1 X121.417Y128.701
G1 X121.507Y128.858
G1 X121.518Y129.022
G1 X121.444Y129.188
G1 X121.353Y129.29
G1 X121.232Y129.385
G1 X121.081Y129.473
G1 X120.905Y129.552
G1 X120.483Y129.681
G1 X119.984Y129.765
G0 X119.984Y129.765
; Layer C25 Pass 1 of 3
G1 X119.67Y129.776
G1 X119.38Y129.739
G1 X119.146Y129.662
G1 X118.999Y129.552
G1 X118.97Y129.49
G1 Y129.428
G1 X119.005Y129.369
G1 X119.065Y129.314
G1 X119.259Y129.221
G1 X119.538Y129.163
G1 X119.761Y129.151
G1 X119.984Y129.163
; Layer C25 Pass 2 of 3
G1 X119.761Y129.151
G1 X119.538Y129.163
G1 X119.259Y129.221
G1 X119.065Y129.314
G1 X119.005Y129.369
G1 X118.972Y129.428
G1 Y129.49
G1 X118.999Y129.552
G1 X119.146Y129.662
G1 X119.38Y129.739
G1 X119.67Y129.776
G1 X119.984Y129.765
; Layer C25 Pass 3 of 3
G1 X119.67Y129.776
G1 X119.38Y129.739
G1 X119.146Y129.662
G1 X118.999Y129.552
G1 X118.97Y129.49
G1 Y129.428
G1 X119.005Y129.369
G1 X119.065Y129.314
G1 X119.259Y129.221
G1 X119.538Y129.163
G1 X119.761Y129.151
G1 X119.984Y129.163
G0 X119.985Y129.163
; Layer C25 Pass 1 of 3
G1 X120.315Y129.187
G1 X120.618Y129.234
G1 X120.887Y129.303
G1 X121.115Y129.39
G1 X121.298Y129.492
G1 X121.429Y129.608
G1 X121.501Y129.733
G1 X121.509Y129.865
G1 X121.458Y129.982
G1 X121.358Y130.092
G1 X121.213Y130.19
G1 X121.028Y130.277
G1 X120.808Y130.351
G1 X120.557Y130.408
G1 X120.281Y130.447
G1 X119.985Y130.467
; Layer C25 Pass 2 of 3
G1 X120.281Y130.447
G1 X120.557Y130.408
G1 X120.808Y130.351
G1 X121.028Y130.277
G1 X121.213Y130.19
G1 X121.358Y130.092
G1 X121.458Y129.982
G1 X121.509Y129.865
G1 X121.501Y129.733
G1 X121.429Y129.608
G1 X121.298Y129.492
G1 X121.115Y129.39
G1 X120.887Y129.303
G1 X120.618Y129.234
G1 X120.315Y129.187
G1 X119.985Y129.163
; Layer C25 Pass 3 of 3
G1 X120.315Y129.187
G1 X120.618Y129.234
G1 X120.887Y129.303
G1 X121.115Y129.39
G1 X121.298Y129.492
G1 X121.429Y129.608
G1 X121.501Y129.733
G1 X121.509Y129.865
G1 X121.458Y129.982
G1 X121.358Y130.092
G1 X121.213Y130.19
G1 X121.028Y130.277
G1 X120.808Y130.351
G1 X120.557Y130.408
G1 X120.281Y130.447
G1 X119.985Y130.467
G0 X119.984Y130.467
; Layer C25 Pass 1 of 3
G1 X117.444
; Layer C25 Pass 2 of 3
G1 X119.984
; Layer C25 Pass 3 of 3
G1 X117.444
G0 X117.42Y130.46
; Layer C25 Pass 1 of 3
G1 Y134.32
; Layer C25 Pass 2 of 3
G1 Y130.46
; Layer C25 Pass 3 of 3
G1 Y134.32
G0 X115.424Y133.977
; Layer C25 Pass 1 of 3
G1 Y132.519
; Layer C25 Pass 2 of 3
G1 Y133.977
; Layer C25 Pass 3 of 3
G1 Y132.519
G0 X115.379Y132.483
; Layer C25 Pass 1 of 3
G1 X123.436
; Layer C25 Pass 2 of 3
G1 X115.379
; Layer C25 Pass 3 of 3
G1 X123.436
G0 X123.431Y132.479
; Layer C25 Pass 1 of 3
G1 Y130.17
; Layer C25 Pass 2 of 3
G1 Y132.479
; Layer C25 Pass 3 of 3
G1 Y130.17
G0 X123.431Y130.17
; Layer C25 Pass 1 of 3
G1 X124.193Y130.698
; Layer C25 Pass 2 of 3
G1 X123.431Y130.17
; Layer C25 Pass 3 of 3
G1 X124.193Y130.698
G0 X124.198Y130.669
; Layer C25 Pass 1 of 3
G1 X123.436Y130.141
; Layer C25 Pass 2 of 3
G1 X124.198Y130.669
; Layer C25 Pass 3 of 3
G1 X123.436Y130.141
G0 X123.436Y130.141
; Layer C25 Pass 1 of 3
G1 X122.674Y130.669
; Layer C25 Pass 2 of 3
G1 X123.436Y130.141
; Layer C25 Pass 3 of 3
G1 X122.674Y130.669
G0 X122.669Y130.698
; Layer C25 Pass 1 of 3
G1 X123.431Y130.17
; Layer C25 Pass 2 of 3
G1 X122.669Y130.698
; Layer C25 Pass 3 of 3
G1 X123.431Y130.17
G0 X119.984Y127.759
; Layer C25 Pass 1 of 3
G1 X119.67Y127.77
G1 X119.38Y127.733
G1 X119.146Y127.657
G1 X118.999Y127.546
G1 X118.97Y127.484
G1 Y127.422
G1 X119.005Y127.363
G1 X119.065Y127.308
G1 X119.259Y127.216
G1 X119.538Y127.158
G1 X119.761Y127.145
G1 X119.984Y127.158
; Layer C25 Pass 2 of 3
G1 X119.761Y127.145
G1 X119.538Y127.158
G1 X119.259Y127.216
G1 X119.065Y127.308
G1 X119.005Y127.363
G1 X118.972Y127.422
G1 Y127.484
G1 X118.999Y127.546
G1 X119.146Y127.657
G1 X119.38Y127.733
G1 X119.67Y127.77
G1 X119.984Y127.759
; Layer C25 Pass 3 of 3
G1 X119.67Y127.77
G1 X119.38Y127.733
G1 X119.146Y127.657
G1 X118.999Y127.546
G1 X118.97Y127.484
G1 Y127.422
G1 X119.005Y127.363
G1 X119.065Y127.308
G1 X119.259Y127.216
G1 X119.538Y127.158
G1 X119.761Y127.145
G1 X119.984Y127.158
G0 X119.984Y127.759
; Layer C25 Pass 1 of 3
G1 X120.28Y127.74
G1 X120.556Y127.7
G1 X120.806Y127.643
G1 X121.027Y127.57
G1 X121.212Y127.483
G1 X121.357Y127.384
G1 X121.457Y127.275
G1 X121.507Y127.158
G1 X121.499Y127.025
G1 X121.427Y126.9
G1 X121.296Y126.785
G1 X121.114Y126.682
G1 X120.885Y126.595
G1 X120.616Y126.527
G1 X120.314Y126.479
G1 X119.984Y126.456
; Layer C25 Pass 2 of 3
G1 X120.314Y126.479
G1 X120.616Y126.527
G1 X120.885Y126.595
G1 X121.114Y126.682
G1 X121.296Y126.785
G1 X121.427Y126.9
G1 X121.499Y127.025
G1 X121.507Y127.158
G1 X121.457Y127.275
G1 X121.357Y127.384
G1 X121.212Y127.483
G1 X121.027Y127.57
G1 X120.806Y127.643
G1 X120.556Y127.7
G1 X120.28Y127.74
G1 X119.984Y127.759
; Layer C25 Pass 3 of 3
G1 X120.28Y127.74
G1 X120.556Y127.7
G1 X120.806Y127.643
G1 X121.027Y127.57
G1 X121.212Y127.483
G1 X121.357Y127.384
G1 X121.457Y127.275
G1 X121.507Y127.158
G1 X121.499Y127.025
G1 X121.427Y126.9
G1 X121.296Y126.785
G1 X121.114Y126.682
G1 X120.885Y126.595
G1 X120.616Y126.527
G1 X120.314Y126.479
G1 X119.984Y126.456
G0 X119.984Y126.456
; Layer C25 Pass 1 of 3
G1 X117.444
; Layer C25 Pass 2 of 3
G1 X119.984
; Layer C25 Pass 3 of 3
G1 X117.444
G0 X117.402Y126.478
; Layer C25 Pass 1 of 3
G1 Y122.652
; Layer C25 Pass 2 of 3
G1 Y126.478
; Layer C25 Pass 3 of 3
G1 Y122.652
G0 X115.424Y122.937
; Layer C25 Pass 1 of 3
G1 Y124.503
; Layer C25 Pass 2 of 3
G1 Y122.937
; Layer C25 Pass 3 of 3
G1 Y124.503
G0 X115.416Y124.481
; Layer C25 Pass 1 of 3
G1 X123.421
; Layer C25 Pass 2 of 3
G1 X115.416
; Layer C25 Pass 3 of 3
G1 X123.421
G0 X103.418Y122.936
; Layer C25 Pass 1 of 3
G1 Y126.422
G1 X103.386
G1 X103.165Y126.429
G1 X102.564Y126.434
G1 X101.393
; Layer C25 Pass 2 of 3
G1 X102.564
G1 X103.165Y126.429
G1 X103.386Y126.424
G1 X103.418
G1 Y122.936
; Layer C25 Pass 3 of 3
G1 Y126.422
G1 X103.386
G1 X103.165Y126.429
G1 X102.564Y126.434
G1 X101.393
G0 X101.431Y126.476
; Layer C25 Pass 1 of 3
G1 Y130.517
; Layer C25 Pass 2 of 3
G1 Y126.476
; Layer C25 Pass 3 of 3
G1 Y130.517
G0 X101.375Y130.449
; Layer C25 Pass 1 of 3
G1 X102.577
G1 X103.194Y130.456
G1 X103.421Y130.46
G1 X103.454Y130.463
G1 Y133.948
; Layer C25 Pass 2 of 3
G1 Y130.463
G1 X103.421Y130.46
G1 X103.194Y130.456
G1 X102.577Y130.451
G1 X101.375
; Layer C25 Pass 3 of 3
G1 X102.577
G1 X103.194Y130.456
G1 X103.421Y130.46
G1 X103.454Y130.463
G1 Y133.948
G0 X98.436Y132.483
; Layer C25 Pass 1 of 3
G1 X90.379
; Layer C25 Pass 2 of 3
G1 X98.436
; Layer C25 Pass 3 of 3
G1 X90.379
G0 X90.424Y132.519
; Layer C25 Pass 1 of 3
G1 Y133.977
; Layer C25 Pass 2 of 3
G1 Y132.519
; Layer C25 Pass 3 of 3
G1 Y133.977
G0 X92.42Y134.32
; Layer C25 Pass 1 of 3
G1 Y130.46
; Layer C25 Pass 2 of 3
G1 Y134.32
; Layer C25 Pass 3 of 3
G1 Y130.46
G0 X92.444Y130.467
; Layer C25 Pass 1 of 3
G1 X94.984
; Layer C25 Pass 2 of 3
G1 X92.444
; Layer C25 Pass 3 of 3
G1 X94.984
G0 X94.985Y130.467
; Layer C25 Pass 1 of 3
G1 X95.281Y130.447
G1 X95.557Y130.408
G1 X95.808Y130.351
G1 X96.028Y130.277
G1 X96.213Y130.19
G1 X96.358Y130.092
G1 X96.458Y129.982
G1 X96.509Y129.865
G1 X96.501Y129.733
G1 X96.429Y129.608
G1 X96.298Y129.492
G1 X96.115Y129.39
G1 X95.887Y129.303
G1 X95.618Y129.234
G1 X95.315Y129.187
G1 X94.985Y129.163
; Layer C25 Pass 2 of 3
G1 X95.315Y129.187
G1 X95.618Y129.234
G1 X95.887Y129.303
G1 X96.115Y129.39
G1 X96.298Y129.492
G1 X96.429Y129.608
G1 X96.501Y129.733
G1 X96.509Y129.865
G1 X96.458Y129.982
G1 X96.358Y130.092
G1 X96.213Y130.19
G1 X96.028Y130.277
G1 X95.808Y130.351
G1 X95.557Y130.408
G1 X95.281Y130.447
G1 X94.985Y130.467
; Layer C25 Pass 3 of 3
G1 X95.281Y130.447
G1 X95.557Y130.408
G1 X95.808Y130.351
G1 X96.028Y130.277
G1 X96.213Y130.19
G1 X96.358Y130.092
G1 X96.458Y129.982
G1 X96.509Y129.865
G1 X96.501Y129.733
G1 X96.429Y129.608
G1 X96.298Y129.492
G1 X96.115Y129.39
G1 X95.887Y129.303
G1 X95.618Y129.234
G1 X95.315Y129.187
G1 X94.985Y129.163
G0 X94.984Y129.163
; Layer C25 Pass 1 of 3
G1 X94.761Y129.151
G1 X94.538Y129.163
G1 X94.259Y129.221
G1 X94.065Y129.314
G1 X94.005Y129.369
G1 X93.972Y129.428
G1 Y129.49
G1 X93.999Y129.552
G1 X94.146Y129.662
G1 X94.38Y129.739
G1 X94.67Y129.776
G1 X94.984Y129.765
; Layer C25 Pass 2 of 3
G1 X94.67Y129.776
G1 X94.38Y129.739
G1 X94.146Y129.662
G1 X93.999Y129.552
G1 X93.97Y129.49
G1 Y129.428
G1 X94.005Y129.369
G1 X94.065Y129.314
G1 X94.259Y129.221
G1 X94.538Y129.163
G1 X94.761Y129.151
G1 X94.984Y129.163
; Layer C25 Pass 3 of 3
G1 X94.761Y129.151
G1 X94.538Y129.163
G1 X94.259Y129.221
G1 X94.065Y129.314
G1 X94.005Y129.369
G1 X93.972Y129.428
G1 Y129.49
G1 X93.999Y129.552
G1 X94.146Y129.662
G1 X94.38Y129.739
G1 X94.67Y129.776
G1 X94.984Y129.765
G0 X94.984Y129.765
; Layer C25 Pass 1 of 3
G1 X95.483Y129.681
G1 X95.905Y129.552
G1 X96.081Y129.473
G1 X96.232Y129.385
G1 X96.353Y129.29
G1 X96.444Y129.188
G1 X96.518Y129.022
G1 X96.507Y128.858
G1 X96.417Y128.701
G1 X96.253Y128.555
G1 X96.022Y128.424
G1 X95.73Y128.311
G1 X95.382Y128.222
G1 X94.984Y128.161
; Layer C25 Pass 2 of 3
G1 X95.382Y128.222
G1 X95.73Y128.311
G1 X96.022Y128.424
G1 X96.253Y128.555
G1 X96.417Y128.701
G1 X96.507Y128.858
G1 X96.518Y129.022
G1 X96.444Y129.188
G1 X96.353Y129.29
G1 X96.232Y129.385
G1 X96.081Y129.473
G1 X95.905Y129.552
G1 X95.483Y129.681
G1 X94.984Y129.765
; Layer C25 Pass 3 of 3
G1 X95.483Y129.681
G1 X95.905Y129.552
G1 X96.081Y129.473
G1 X96.232Y129.385
G1 X96.353Y129.29
G1 X96.444Y129.188
G1 X96.518Y129.022
G1 X96.507Y128.858
G1 X96.417Y128.701
G1 X96.253Y128.555
G1 X96.022Y128.424
G1 X95.73Y128.311
G1 X95.382Y128.222
G1 X94.984Y128.161
G0 X94.984Y128.161
; Layer C25 Pass 1 of 3
G1 X94.761Y128.148
G1 X94.538Y128.161
G1 X94.259Y128.218
G1 X94.065Y128.311
G1 X94.005Y128.366
G1 X93.972Y128.425
G1 Y128.487
G1 X93.999Y128.549
G1 X94.146Y128.659
G1 X94.38Y128.736
G1 X94.67Y128.773
G1 X94.984Y128.762
; Layer C25 Pass 2 of 3
G1 X94.67Y128.773
G1 X94.38Y128.736
G1 X94.146Y128.659
G1 X93.999Y128.549
G1 X93.97Y128.487
G1 Y128.425
G1 X94.005Y128.366
G1 X94.065Y128.311
G1 X94.259Y128.218
G1 X94.538Y128.161
G1 X94.761Y128.148
G1 X94.984Y128.161
; Layer C25 Pass 3 of 3
G1 X94.761Y128.148
G1 X94.538Y128.161
G1 X94.259Y128.218
G1 X94.065Y128.311
G1 X94.005Y128.366
G1 X93.972Y128.425
G1 Y128.487
G1 X93.999Y128.549
G1 X94.146Y128.659
G1 X94.38Y128.736
G1 X94.67Y128.773
G1 X94.984Y128.762
G0 X94.984Y128.762
; Layer C25 Pass 1 of 3
G1 X95.473Y128.678
G1 X95.888Y128.551
G1 X96.062Y128.473
G1 X96.21Y128.387
G1 X96.331Y128.294
G1 X96.423Y128.194
G1 X96.501Y128.028
G1 X96.494Y127.863
G1 X96.407Y127.706
G1 X96.247Y127.558
G1 X96.019Y127.426
G1 X95.728Y127.312
G1 X95.381Y127.221
G1 X94.984Y127.158
; Layer C25 Pass 2 of 3
G1 X95.381Y127.221
G1 X95.728Y127.312
G1 X96.019Y127.426
G1 X96.247Y127.558
G1 X96.407Y127.706
G1 X96.494Y127.863
G1 X96.501Y128.028
G1 X96.423Y128.194
G1 X96.331Y128.294
G1 X96.21Y128.387
G1 X96.062Y128.473
G1 X95.888Y128.551
G1 X95.473Y128.678
G1 X94.984Y128.762
; Layer C25 Pass 3 of 3
G1 X95.473Y128.678
G1 X95.888Y128.551
G1 X96.062Y128.473
G1 X96.21Y128.387
G1 X96.331Y128.294
G1 X96.423Y128.194
G1 X96.501Y128.028
G1 X96.494Y127.863
G1 X96.407Y127.706
G1 X96.247Y127.558
G1 X96.019Y127.426
G1 X95.728Y127.312
G1 X95.381Y127.221
G1 X94.984Y127.158
G0 X94.984Y127.158
; Layer C25 Pass 1 of 3
G1 X94.761Y127.145
G1 X94.538Y127.158
G1 X94.259Y127.216
G1 X94.065Y127.308
G1 X94.005Y127.363
G1 X93.972Y127.422
G1 Y127.484
G1 X93.999Y127.546
G1 X94.146Y127.657
G1 X94.38Y127.733
G1 X94.67Y127.77
G1 X94.984Y127.759
; Layer C25 Pass 2 of 3
G1 X94.67Y127.77
G1 X94.38Y127.733
G1 X94.146Y127.657
G1 X93.999Y127.546
G1 X93.97Y127.484
G1 Y127.422
G1 X94.005Y127.363
G1 X94.065Y127.308
G1 X94.259Y127.216
G1 X94.538Y127.158
G1 X94.761Y127.145
G1 X94.984Y127.158
; Layer C25 Pass 3 of 3
G1 X94.761Y127.145
G1 X94.538Y127.158
G1 X94.259Y127.216
G1 X94.065Y127.308
G1 X94.005Y127.363
G1 X93.972Y127.422
G1 Y127.484
G1 X93.999Y127.546
G1 X94.146Y127.657
G1 X94.38Y127.733
G1 X94.67Y127.77
G1 X94.984Y127.759
G0 X94.984Y127.759
; Layer C25 Pass 1 of 3
G1 X95.28Y127.74
G1 X95.556Y127.7
G1 X95.806Y127.643
G1 X96.027Y127.57
G1 X96.212Y127.483
G1 X96.357Y127.384
G1 X96.457Y127.275
G1 X96.507Y127.158
G1 X96.499Y127.025
G1 X96.427Y126.9
G1 X96.296Y126.785
G1 X96.114Y126.682
G1 X95.885Y126.595
G1 X95.616Y126.527
G1 X95.314Y126.479
G1 X94.984Y126.456
; Layer C25 Pass 2 of 3
G1 X95.314Y126.479
G1 X95.616Y126.527
G1 X95.885Y126.595
G1 X96.114Y126.682
G1 X96.296Y126.785
G1 X96.427Y126.9
G1 X96.499Y127.025
G1 X96.507Y127.158
G1 X96.457Y127.275
G1 X96.357Y127.384
G1 X96.212Y127.483
G1 X96.027Y127.57
G1 X95.806Y127.643
G1 X95.556Y127.7
G1 X95.28Y127.74
G1 X94.984Y127.759
; Layer C25 Pass 3 of 3
G1 X95.28Y127.74
G1 X95.556Y127.7
G1 X95.806Y127.643
G1 X96.027Y127.57
G1 X96.212Y127.483
G1 X96.357Y127.384
G1 X96.457Y127.275
G1 X96.507Y127.158
G1 X96.499Y127.025
G1 X96.427Y126.9
G1 X96.296Y126.785
G1 X96.114Y126.682
G1 X95.885Y126.595
G1 X95.616Y126.527
G1 X95.314Y126.479
G1 X94.984Y126.456
G0 X94.984Y126.456
; Layer C25 Pass 1 of 3
G1 X92.444
; Layer C25 Pass 2 of 3
G1 X94.984
; Layer C25 Pass 3 of 3
G1 X92.444
G0 X92.402Y126.478
; Layer C25 Pass 1 of 3
G1 Y122.652
; Layer C25 Pass 2 of 3
G1 Y126.478
; Layer C25 Pass 3 of 3
G1 Y122.652
G0 X90.424Y122.937
; Layer C25 Pass 1 of 3
G1 Y124.503
; Layer C25 Pass 2 of 3
G1 Y122.937
; Layer C25 Pass 3 of 3
G1 Y124.503
G0 X90.416Y124.481
; Layer C25 Pass 1 of 3
G1 X98.421
; Layer C25 Pass 2 of 3
G1 X90.416
; Layer C25 Pass 3 of 3
G1 X98.421
G0 X98.424Y124.48
; Layer C25 Pass 1 of 3
G1 Y125.54
; Layer C25 Pass 2 of 3
G1 Y124.48
; Layer C25 Pass 3 of 3
G1 Y125.54
G0 X98.424Y125.113
; Layer C25 Pass 1 of 3
G1 Y126.874
; Layer C25 Pass 2 of 3
G1 Y125.113
; Layer C25 Pass 3 of 3
G1 Y126.874
G0 X98.424Y126.874
; Layer C25 Pass 1 of 3
G1 X99.186Y126.346
; Layer C25 Pass 2 of 3
G1 X98.424Y126.874
; Layer C25 Pass 3 of 3
G1 X99.186Y126.346
G0 X99.187Y126.353
; Layer C25 Pass 1 of 3
G1 X98.425Y126.882
; Layer C25 Pass 2 of 3
G1 X99.187Y126.353
; Layer C25 Pass 3 of 3
G1 X98.425Y126.882
G0 X98.421Y126.883
; Layer C25 Pass 1 of 3
G1 X97.659Y126.354
; Layer C25 Pass 2 of 3
G1 X98.421Y126.883
; Layer C25 Pass 3 of 3
G1 X97.659Y126.354
G0 X97.662Y126.346
; Layer C25 Pass 1 of 3
G1 X98.424Y126.874
; Layer C25 Pass 2 of 3
G1 X97.662Y126.346
; Layer C25 Pass 3 of 3
G1 X98.424Y126.874
G0 X99.057Y127.238
; Layer C25 Pass 1 of 3
G1 X100.835Y128.472
; Layer C25 Pass 2 of 3
G1 X99.057Y127.238
; Layer C25 Pass 3 of 3
G1 X100.835Y128.472
G0 X100.835Y128.472
; Layer C25 Pass 1 of 3
G1 X101.445
; Layer C25 Pass 2 of 3
G1 X100.835
; Layer C25 Pass 3 of 3
G1 X101.445
G0 X100.822Y128.496
; Layer C25 Pass 1 of 3
G1 X99.044Y127.263
; Layer C25 Pass 2 of 3
G1 X100.822Y128.496
; Layer C25 Pass 3 of 3
G1 X99.044Y127.263
G0 X98.436Y130.141
; Layer C25 Pass 1 of 3
G1 X97.674Y130.669
; Layer C25 Pass 2 of 3
G1 X98.436Y130.141
; Layer C25 Pass 3 of 3
G1 X97.674Y130.669
G0 X97.669Y130.698
; Layer C25 Pass 1 of 3
G1 X98.431Y130.17
; Layer C25 Pass 2 of 3
G1 X97.669Y130.698
; Layer C25 Pass 3 of 3
G1 X98.431Y130.17
G0 X98.431Y130.17
; Layer C25 Pass 1 of 3
G1 Y132.479
; Layer C25 Pass 2 of 3
G1 Y130.17
; Layer C25 Pass 3 of 3
G1 Y132.479
G0 X99.193Y130.698
; Layer C25 Pass 1 of 3
G1 X98.431Y130.17
; Layer C25 Pass 2 of 3
G1 X99.193Y130.698
; Layer C25 Pass 3 of 3
G1 X98.431Y130.17
G0 X98.436Y130.141
; Layer C25 Pass 1 of 3
G1 X99.198Y130.669
; Layer C25 Pass 2 of 3
G1 X98.436Y130.141
; Layer C25 Pass 3 of 3
G1 X99.198Y130.669
G0 X63.885Y133.948
; Layer C25 Pass 1 of 3
G1 Y130.463
G1 X63.853Y130.46
G1 X63.625Y130.456
G1 X63.008Y130.451
G1 X61.806
; Layer C25 Pass 2 of 3
G1 X63.008
G1 X63.625Y130.456
G1 X63.853Y130.46
G1 X63.885Y130.463
G1 Y133.948
; Layer C25 Pass 3 of 3
G1 Y130.463
G1 X63.853Y130.46
G1 X63.625Y130.456
G1 X63.008Y130.451
G1 X61.806
G0 X61.863Y130.517
; Layer C25 Pass 1 of 3
G1 Y126.476
; Layer C25 Pass 2 of 3
G1 Y130.517
; Layer C25 Pass 3 of 3
G1 Y126.476
G0 X61.824Y126.436
; Layer C25 Pass 1 of 3
G1 X62.995
G1 X63.596Y126.429
G1 X63.818Y126.424
G1 X63.85
G1 Y122.936
; Layer C25 Pass 2 of 3
G1 Y126.422
G1 X63.818
G1 X63.596Y126.429
G1 X62.995Y126.434
G1 X61.824
; Layer C25 Pass 3 of 3
G1 X62.995
G1 X63.596Y126.429
G1 X63.818Y126.424
G1 X63.85
G1 Y122.936
G0 X58.855Y124.48
; Layer C25 Pass 1 of 3
G1 Y125.54
; Layer C25 Pass 2 of 3
G1 Y124.48
; Layer C25 Pass 3 of 3
G1 Y125.54
G0 X58.855Y125.113
; Layer C25 Pass 1 of 3
G1 Y126.874
; Layer C25 Pass 2 of 3
G1 Y125.113
; Layer C25 Pass 3 of 3
G1 Y126.874
G0 X58.855Y126.874
; Layer C25 Pass 1 of 3
G1 X59.617Y126.346
; Layer C25 Pass 2 of 3
G1 X58.855Y126.874
; Layer C25 Pass 3 of 3
G1 X59.617Y126.346
G0 X59.619Y126.353
; Layer C25 Pass 1 of 3
G1 X58.857Y126.882
; Layer C25 Pass 2 of 3
G1 X59.619Y126.353
; Layer C25 Pass 3 of 3
G1 X58.857Y126.882
G0 X58.853Y126.883
; Layer C25 Pass 1 of 3
G1 X58.091Y126.354
; Layer C25 Pass 2 of 3
G1 X58.853Y126.883
; Layer C25 Pass 3 of 3
G1 X58.091Y126.354
G0 X58.093Y126.346
; Layer C25 Pass 1 of 3
G1 X58.855Y126.874
; Layer C25 Pass 2 of 3
G1 X58.093Y126.346
; Layer C25 Pass 3 of 3
G1 X58.855Y126.874
G0 X59.488Y127.238
; Layer C25 Pass 1 of 3
G1 X61.266Y128.472
; Layer C25 Pass 2 of 3
G1 X59.488Y127.238
; Layer C25 Pass 3 of 3
G1 X61.266Y128.472
G0 X61.266Y128.472
; Layer C25 Pass 1 of 3
G1 X61.877
; Layer C25 Pass 2 of 3
G1 X61.266
; Layer C25 Pass 3 of 3
G1 X61.877
G0 X61.254Y128.496
; Layer C25 Pass 1 of 3
G1 X59.476Y127.263
; Layer C25 Pass 2 of 3
G1 X61.254Y128.496
; Layer C25 Pass 3 of 3
G1 X59.476Y127.263
G0 X55.415Y127.158
; Layer C25 Pass 1 of 3
G1 X55.813Y127.221
G1 X56.159Y127.312
G1 X56.45Y127.426
G1 X56.678Y127.558
G1 X56.839Y127.706
G1 X56.925Y127.863
G1 X56.933Y128.028
G1 X56.854Y128.194
G1 X56.763Y128.294
G1 X56.642Y128.387
G1 X56.493Y128.473
G1 X56.319Y128.551
G1 X55.904Y128.678
G1 X55.415Y128.762
; Layer C25 Pass 2 of 3
G1 X55.904Y128.678
G1 X56.319Y128.551
G1 X56.493Y128.473
G1 X56.642Y128.387
G1 X56.763Y128.294
G1 X56.854Y128.194
G1 X56.933Y128.028
G1 X56.925Y127.863
G1 X56.839Y127.706
